!!!!SEGMENT: pl-stab--8a--001-002_dankowski-adalbert--requiem-kyrie.krn
!!!cenid: 18xx:3476
!!!COM: Dankowski, Adalbert
!!!COM-rismID: pe30000793
!!!CDT: ~1760-~1836
!!!CNT: Polish
!!!OPR: Requiem
!!!OTL: Kyrie
!!!OMV: 002
!!!PDT:
!!!AGN:
!!!YEC: Copyright 2022 Narodowy Instytut Fryderyka Chopina (https://polishscores.org)
!!!YEM: License CC-BY-4.0 (https://creativecommons.org/licenses/by/4.0)
!!!SMS-siglum: PL-STAb
!!!SMS-shelfmark: 8a
!!!SMS-shelfwork: 001-002 M
!!!SMS-variant:
!!!SMS-altvar:
!!!NIFC-rismSourceID: 301050561
!!!NIFC-rismChildID: 301050561
!!!NIFC-islandoraID: pl-stab:1903
!!!URL-pdf-islandora: https://repozytorium.nifc.pl/islandora/object/pl-stab%3A1903/datastream/PDF/view
!!!URL-scan: https://polish.musicsources.pl/pl/lokalizacje/galeria/rekopisy/4640 @EN{Scan on Polish Music Sources Website} @PL{Skany w portalu Dziedzictwo Muzyki Polskiej w otwartym dostępie}
!!!IIIF:
!!!ONB-nifc: UWAGA: części Requiem: 1. Requiem aeternam, 2. Kyrie, 3. Dies irae, 4. Domine Jesu Christe, 5. Sanctus, 6. Benedictus, 7. Agnus Dei, 8. Lux aeterna
!!!AIN: 1 alto 1 bass 2 clars 2 cor 1 organ 1 soprn 1 tenor 2 violn
!!!key: E-
!!!OMD:
!!!OMD-mod: Andante
**kern	**fba	**dynam	**kern	**dynam	**kern	**dynam	**kern	**text	**dynam	**kern	**text	**dynam	**kern	**text	**dynam	**kern	**text	**dynam	**kern	**dynam	**kern	**dynam	**kern	**dynam	**kern	**dynam
*	*	*	*group4	*	*group4	*	*group3	*	*	*group3	*	*	*group3	*	*	*group3	*	*	*group2	*	*group2	*	*group1	*	*group1	*
*part11	*	*	*part10	*	*part9	*	*part8	*	*	*part7	*	*	*part6	*	*	*part5	*	*	*part4	*	*part3	*	*part2	*	*part1	*
*staff11	*	*	*staff10	*	*staff9	*	*staff8	*	*	*staff7	*	*	*staff6	*	*	*staff5	*	*	*staff4	*	*staff3	*	*staff2	*	*staff1	*
*I"Organo	*	*	*I"Violino Secundo	*	*I"Violino Primo	*	*I"Baſso	*	*	*I"Tenor	*	*	*I"Alto	*	*	*I"Canto	*	*	*I"Cornu Secundo in Dis	*	*I"Cornu Primo in Dis	*	*I"Clarinetto Secundo in Es!	*	*I"Clarinetto Primo in Es	*
*	*	*	*mI"Violino II	*	*mI"Violino I	*	*mI"Basso	*	*	*mI"Tenore	*	*	*	*	*	*mI"Soprano	*	*	*mI"Corno II in Eb	*	*mI"Corno I in Eb	*	*mI"Clarinetto II in Bb	*	*mI"Clarinetto I in Bb	*
*I'org	*	*	*I'vl 2	*	*I'vl 1	*	*I'B	*	*	*I'T	*	*	*I'A	*	*	*I'S	*	*	*I'cor 2 in Dis	*	*I'cor 1 in Dis	*	*I'cl 2 in E|b	*	*I'cl 1 in E|b	*
*	*	*	*	*	*	*	*	*	*	*	*	*	*	*	*	*	*	*	*mI'cor 2 in E|b	*	*mI'cor 1 in E|b	*	*mI'cl 1 in B|b	*	*mI'cl 1 in B|b	*
*Iorgan	*	*	*Ivioln	*	*Ivioln	*	*Ibass	*	*	*Itenor	*	*	*Ialto	*	*	*Isoprn	*	*	*Icor	*	*Icor	*	*Iclars	*	*Iclars	*
*ICklav	*	*	*ICstr	*	*ICstr	*	*ICvox	*	*	*ICvox	*	*	*ICvox	*	*	*ICvox	*	*	*ICbras	*	*ICbras	*	*ICww	*	*ICww	*
*IGcont	*	*	*	*	*	*	*IGcoro	*	*	*IGcoro	*	*	*IGcoro	*	*	*IGcoro	*	*	*	*	*	*	*	*	*	*
*clefF4	*	*	*clefG2	*	*clefG2	*	*clefF4	*	*	*clefC4	*	*	*clefC3	*	*	*clefC1	*	*	*clefG2	*	*clefG2	*	*clefG2	*	*clefG2	*
*	*	*	*	*	*	*	*	*	*	*mclefGv2	*	*	*mclefG2	*	*	*mclefG2	*	*	*	*	*	*	*	*	*	*
*	*	*	*	*	*	*	*	*	*	*	*	*	*	*	*	*	*	*	*ITrd-2c-3	*	*ITrd-2c-3	*	*ITrd1c2	*	*ITrd1c2	*
*k[b-e-a-]	*	*	*k[b-e-a-]	*	*k[b-e-a-]	*	*k[b-e-a-]	*	*	*k[b-e-a-]	*	*	*k[b-e-a-]	*	*	*k[b-e-a-]	*	*	*k[b-e-a-]	*	*k[b-e-a-]	*	*k[b-e-a-]	*	*k[b-e-a-]	*
*E-:	*	*	*E-:	*	*E-:	*	*E-:	*	*	*E-:	*	*	*E-:	*	*	*E-:	*	*	*E-:	*	*E-:	*	*E-:	*	*E-:	*
*M3/4	*	*	*M3/4	*	*M3/4	*	*M3/4	*	*	*M3/4	*	*	*M3/4	*	*	*M3/4	*	*	*M3/4	*	*M3/4	*	*M3/4	*	*M3/4	*
=1	=1	=1	=1	=1	=1	=1	=1	=1	=1	=1	=1	=1	=1	=1	=1	=1	=1	=1	=1	=1	=1	=1	=1	=1	=1	=1
!LO:TX:a:rj:B:t=andante:mod=	!	!	!LO:TX:a:B:t=andante:mod=	!	!LO:TX:a:B:t=andante:mod=	!	!LO:TX:a:B:t=andante:mod=	!	!	!LO:TX:a:B:t=andante:mod=	!	!	!LO:TX:a:B:t=andante:mod=	!	!	!LO:TX:a:B:t=andante:mod=	!	!	!LO:TX:a:B:t=andante:mod=	!	!LO:TX:a:B:t=andante:mod=	!	!LO:TX:a:B:t=andante:mod=	!	!LO:TX:a:B:t=andante:mod=	!
!LO:MO:mod=!LO&colon;TX&colon;a&colon;i&colon;t=Tutti	!	!	!	!	!	!	!	!	!	!	!	!	!	!	!	!	!	!	!	!	!	!	!	!	!	!
!LO:TX:a:B:t=Tutti	!	!	!	!	!	!	!	!	!	!	!	!	!	!	!	!	!	!	!	!	!	!	!LO:TX:a:t=P:problem=błędna nazwa partii - powinna być in B|b	!	!LO:TX:a:t=P:problem=błędna nazwa partii - powinna być in B|b	!
8.E-\L	.	.	4.g/	.	4.b-\	.	8.E-\	Ky-	.	8.e-\	Ky-	.	8.g\	Ky-	.	8.b-\	Ky-	.	8.e-/L	.	8.ee-\L	.	8.ee-\L	.	8.gg\L	.
16E-\Jk	.	.	.	.	.	.	16E-\	-ri-	.	16e-\	-ri-	.	16g\	-ri-	.	16b-\	-ri-	.	16e-/Jk	.	16ee-\Jk	.	16ee-\Jk	.	16gg\Jk	.
4E-\	.	.	.	.	.	.	4E-\	-e	.	4e-\	-e	.	4g\	-e	.	4b-\	-e	.	4e-/	.	4ee-\	.	4ee-\	.	4gg\	.
.	.	.	16a-/LL	.	16cc\LL	.	.	.	.	.	.	.	.	.	.	.	.	.	.	.	.	.	.	.	.	.
.	.	.	16g/JJ	.	16b-\JJ	.	.	.	.	.	.	.	.	.	.	.	.	.	.	.	.	.	.	.	.	.
!	!	!	!	!LO:DY:a:t=for	!	!	!	!	!	!	!	!	!	!	!	!	!	!	!	!	!	!	!	!	!	!
!	!	!	!	!LO:MO:mod=.	!	!	!	!	!	!	!	!	!	!	!	!	!	!	!	!	!	!	!	!	!	!
8r	.	.	8cc/L	f	8ee-\L	.	8r	.	.	8r	.	.	8r	.	.	8r	.	.	8r	.	8r	.	8r	.	8r	.
8E-\	6: 4:	.	8a-/J	.	8cc\J	.	8E-\	e-	.	8e-\	e-	.	8a-\	e-	.	8cc\	e-	.	8e-/	.	8ee-\	.	8cc\	.	8aa-\	.
=2	=2	=2	=2	=2	=2	=2	=2	=2	=2	=2	=2	=2	=2	=2	=2	=2	=2	=2	=2	=2	=2	=2	=2	=2	=2	=2
!	!	!	!	!	!LO:SIC:s=(8.ccTL	!	!	!	!	!	!	!	!	!	!	!	!	!	!	!	!	!	!	!	!	!
4E-\	.	.	(<8.a-/L	.	8.ccT>\L	.	4E-\	-lei-	.	4e-\	-lei-	.	4a-\	-lei-	.	4cc\	-lei-	.	4e-/	.	4ee-\	.	4cc\	.	4aa-\	.
!	!	!	!	!	!LO:SIC:s=32b-LL	!	!	!	!	!	!	!	!	!	!	!	!	!	!	!	!	!	!	!	!	!
.	.	.	32g/LL	.	(>32b-\LL	.	.	.	.	.	.	.	.	.	.	.	.	.	.	.	.	.	.	.	.	.
.	.	.	32a-/JJJ)	.	32cc\JJJ)	.	.	.	.	.	.	.	.	.	.	.	.	.	.	.	.	.	.	.	.	.
!	!	!	!	!	!LO:SIC:s=8b-L|	!	!	!	!	!	!	!	!	!	!	!	!	!	!	!	!	!	!	!	!	!
4E-\	5 3	.	8g/L|	.	8b-/L	.	4E-\	-son	.	4e-\	-son	.	4g\	-son	.	4b-\	-son	.	4e-/	.	4ee-\	.	4b-\	.	4gg\	.
.	.	.	8e-/|	.	8g/|	.	.	.	.	.	.	.	.	.	.	.	.	.	.	.	.	.	.	.	.	.
4r	.	.	8f/|	.	8a-/|	.	4r	.	.	4r	.	.	4r	.	.	4r	.	.	4r	.	4r	.	4r	.	4r	.
.	.	.	8g/J|	.	8b-/J|	.	.	.	.	.	.	.	.	.	.	.	.	.	.	.	.	.	.	.	.	.
=3	=3	=3	=3	=3	=3	=3	=3	=3	=3	=3	=3	=3	=3	=3	=3	=3	=3	=3	=3	=3	=3	=3	=3	=3	=3	=3
!	!	!	!LO:SIC:s=(8.a-L	!	!	!	!	!	!	!	!	!	!	!	!	!	!	!	!	!	!	!	!	!	!	!
4r	.	.	8.a-/L	.	(>8.cc\L	.	4r	.	.	4r	.	.	4r	.	.	4r	.	.	4r	.	4r	.	4r	.	4r	.
!	!	!	!LO:SIC:s=32gLL	!	!	!	!	!	!	!	!	!	!	!	!	!	!	!	!	!	!	!	!	!	!	!
.	.	.	(<32g/LL	.	32b-\LL	.	.	.	.	.	.	.	.	.	.	.	.	.	.	.	.	.	.	.	.	.
.	.	.	32f/JJJ)	.	32a-\JJJ)	.	.	.	.	.	.	.	.	.	.	.	.	.	.	.	.	.	.	.	.	.
!	!	!	!	!LO:DY:a:t=p.	!	!LO:DY:a:t=p.	!	!	!	!	!	!	!	!	!	!	!	!	!	!	!	!	!	!	!	!
8r	.	.	8e-/L	p	8g/L	p	8r	.	.	8r	.	.	8r	.	.	8r	.	.	8r	.	8r	.	8r	.	8r	.
!	!	!LO:DY:a:rj:t=p.	!	!	!	!	!	!	!LO:DY:a:t=p.	!	!	!LO:DY:a	!	!	!LO:DY:a:rj:t=p.	!	!	!LO:DY:a:rj	!	!LO:DY:a:t=p.	!	!LO:DY:a:t=p.	!	!LO:DY:a:rj:t=p.	!	!LO:DY:a:rj:t=p.
8E-\L	.	p	8g/	.	8b-/	.	8E-\	Chri-	p	8B-\	Chri-	p	8b-\	Chri-	p	8gg\	Chri-	p	8ee-\L	p	8gg\L	p	8gg\L	p	8bb-\L	p
8A-\	6 x	.	8f/	.	8a-/	.	8A-\	-ste	.	8c\	-ste	.	8a-\	-ste	.	8ff\	-ste	.	8ff\	.	8aa-\	.	8ff\	.	8aa-\	.
8An\J	5 x	.	8e-/J	.	8g/J	.	8An\	e-	.	8c\	e-	.	8g\	e-	.	8ee-\	e-	.	8ee-\J	.	8gg\J	.	8ee-\J	.	8gg\J	.
=4	=4	=4	=4	=4	=4	=4	=4	=4	=4	=4	=4	=4	=4	=4	=4	=4	=4	=4	=4	=4	=4	=4	=4	=4	=4	=4
!	!	!	!LO:SIC:s=(8.dL	!	!LO:SIC:s=(8.fL	!	!	!	!	!	!	!	!	!	!	!	!	!	!	!	!	!	!	!	!	!
4B-\	x 3	.	8.d/L	.	8.f/L	.	4B-\	-lei-	.	4B-\	-lei-	.	4f\	-lei-	.	4dd\	-lei-	.	4b-/	.	4ff\	.	4dd\	.	4ff\	.
!	!	!	!LO:SIC:s=32e-LL	!	!	!	!	!	!	!	!	!	!	!	!	!	!	!	!	!	!	!	!	!	!	!
.	.	.	(<32e-/LL	.	32g/LL	.	.	.	.	.	.	.	.	.	.	.	.	.	.	.	.	.	.	.	.	.
!	!	!	!	!	!LO:SIC:s=32a-JJJ)	!	!	!	!	!	!	!	!	!	!	!	!	!	!	!	!	!	!	!	!	!
.	.	.	32f/JJJ)	.	32a-/JJJ	.	.	.	.	.	.	.	.	.	.	.	.	.	.	.	.	.	.	.	.	.
4E-\	.	.	8e-/L	.	8g/L	.	4E-\	-son	.	4B-\	-son	.	4g\	-son	.	4ee-\	-son	.	4g/	.	4ee-\	.	4ee-\	.	4gg\	.
!	!	!	!	!LO:MO:mod=!null:null	!	!	!	!	!	!	!	!	!	!	!	!	!	!	!	!	!	!	!	!	!	!
!	!	!	!	!LO:HP:a:t=cres	!	!	!	!	!	!	!	!	!	!	!	!	!	!	!	!	!	!	!	!	!	!
!	!	!	!	!LO:MO:mod=.	!	!	!	!	!	!	!	!	!	!	!	!	!	!	!	!	!	!	!	!	!	!
.	.	.	8e-/J	<	8g/J	.	.	.	.	.	.	.	.	.	.	.	.	.	.	.	.	.	.	.	.	.
!	!	!	!	!LO:MO:null:mod=<	!	!	!	!	!	!	!	!	!	!	!	!	!	!	!	!	!	!	!	!	!	!
4r	.	.	(<16e-/LL	.	(<16g/LL	<	4r	.	.	4r	.	.	4r	.	.	4r	.	.	4r	.	4r	.	4r	.	4r	.
.	.	.	16f/)	.	16a-/)	.	.	.	.	.	.	.	.	.	.	.	.	.	.	.	.	.	.	.	.	.
.	.	.	(<16f#X/	.	(<16an/	.	.	.	.	.	.	.	.	.	.	.	.	.	.	.	.	.	.	.	.	.
.	.	.	16g/JJ)	.	16b-/JJ)	.	.	.	.	.	.	.	.	.	.	.	.	.	.	.	.	.	.	.	.	.
=5	=5	=5	=5	=5	=5	=5	=5	=5	=5	=5	=5	=5	=5	=5	=5	=5	=5	=5	=5	=5	=5	=5	=5	=5	=5	=5
!	!	!LO:DY:a:t=for	!	!LO:DY:a:t=for.	!LO:SIC:s=(4.b-	!LO:DY:a:t=for	!	!	!LO:DY:a:t=f.	!	!	!LO:DY:a:t=for	!	!	!LO:DY:a:rj	!	!	!LO:DY:a:t=f.	!	!LO:DY:a:t=f.	!	!LO:DY:a:t=for	!	!LO:DY:a:rj:t=f.	!	!LO:DY:a:rj:t=f.
8.E-\L	.	f	(<4.g/	f	4.b-\	f	8.E-\	Ky-	f	8.e-\	Ky-	f	8.g\	Ky-	f	8.b-\	Ky-	f	8.e-/L	f	8.ee-\L	f	8.ee-\L	f	8.gg\L	f
16E-\Jk	.	.	.	.	.	.	16E-\	-ri-	.	16e-\	-ri-	.	16g\	-ri-	.	16b-\	-ri-	.	16e-/Jk	.	16ee-\Jk	.	16ee-\Jk	.	16gg\Jk	.
4E-\	.	.	.	.	.	.	4E-\	-e	.	4e-\	-e	.	4g\	-e	.	4b-\	-e	.	4e-/	.	4ee-\	.	4ee-\	.	4gg\	.
.	.	.	16a-/LL	.	16cc\LL	.	.	.	.	.	.	.	.	.	.	.	.	.	.	.	.	.	.	.	.	.
!	!	!	!	!	!LO:SIC:s=16b-JJ)	!	!	!	!	!	!	!	!	!	!	!	!	!	!	!	!	!	!	!	!	!
.	.	.	16g/JJ)	.	16b-\JJ	.	.	.	.	.	.	.	.	.	.	.	.	.	.	.	.	.	.	.	.	.
8r	.	.	8cc/L	.	8ee-\L	.	8r	.	.	8r	.	.	8r	.	.	8r	.	.	8r	.	8r	.	8r	.	8r	.
8E-\	6: 4:	.	8a-/J	.	8cc\J	.	8E-\	e-	.	8e-\	e-	.	8a-\	e-	.	8cc\	e-	.	8e-/	.	8ee-\	.	8cc\	.	8aa-\	.
!	!	!	!LO:LB:g=original	!	!LO:LB:g=original	!	!	!	!	!	!	!	!LO:LB:g=original	!	!	!	!	!	!	!	!	!	!	!	!	!
=6	=6	=6	=6	=6	=6	=6	=6	=6	=6	=6	=6	=6	=6	=6	=6	=6	=6	=6	=6	=6	=6	=6	=6	=6	=6	=6
!	!	!	!	!	!LO:SIC:s=(8.ccTL	!	!	!	!	!	!	!	!	!	!	!	!	!	!	!	!	!	!	!	!	!
4E-\	.	.	(<8.a-/L	.	8.ccT>\L	.	4E-\	-lei-	.	4e-\	-lei-	.	4a-\	-lei-	.	4cc\	-lei-	.	4e-/	.	4ee-\	.	4cc\	.	4aa-\	.
!	!	!	!	!	!LO:SIC:s=32b-LL	!	!	!	!	!	!	!	!	!	!	!	!	!	!	!	!	!	!	!	!	!
.	.	.	32g/LL	.	(>32b-\LL	.	.	.	.	.	.	.	.	.	.	.	.	.	.	.	.	.	.	.	.	.
.	.	.	32a-/JJJ)	.	32cc\JJJ)	.	.	.	.	.	.	.	.	.	.	.	.	.	.	.	.	.	.	.	.	.
!	!	!	!LO:SIC:s=8gL|	!	!LO:SIC:s=8b-L|	!	!	!	!	!	!	!	!	!	!	!	!	!	!	!	!	!	!	!	!	!
4E-\	5 3	.	8g/L	.	8b-/L	.	4E-\	-son	.	4e-\	-son	.	4g\	-son	.	4b-\	-son	.	4e-/	.	4ee-\	.	4b-\	.	4gg\	.
!	!	!	!	!	!LO:SIC:v:s=8g/|	!	!	!	!	!	!	!	!	!	!	!	!	!	!	!	!	!	!	!	!	!
.	.	.	8e-/|	.	8a-/|	.	.	.	.	.	.	.	.	.	.	.	.	.	.	.	.	.	.	.	.	.
4r	.	.	8f/|	.	8a-/|	.	4r	.	.	4r	.	.	4r	.	.	4r	.	.	4r	.	4r	.	4r	.	4r	.
.	.	.	8g/J|	.	8b-/J|	.	.	.	.	.	.	.	.	.	.	.	.	.	.	.	.	.	.	.	.	.
!LO:LB:g=original	!	!	!	!	!	!	!LO:LB:g=original	!	!	!LO:LB:g=original	!	!	!	!	!	!LO:LB:g=original	!	!	!	!	!	!	!LO:LB:g=original	!	!LO:LB:g=original	!
=7	=7	=7	=7	=7	=7	=7	=7	=7	=7	=7	=7	=7	=7	=7	=7	=7	=7	=7	=7	=7	=7	=7	=7	=7	=7	=7
4r	.	.	(<8.a-/L	.	(>8.cc\L	.	4r	.	.	4r	.	.	4r	.	.	4r	.	.	4r	.	4r	.	4r	.	4r	.
.	.	.	32g/LL	.	32b-\LL	.	.	.	.	.	.	.	.	.	.	.	.	.	.	.	.	.	.	.	.	.
.	.	.	32f/JJJ)	.	32a-\JJJ)	.	.	.	.	.	.	.	.	.	.	.	.	.	.	.	.	.	.	.	.	.
!	!	!	!	!LO:DY:a:t=p.	!LO:SIC:s=8gL|	!LO:DY:a:t=p.	!	!	!	!	!	!	!	!	!	!	!	!	!	!	!	!	!	!	!	!
8r	.	.	8e-/L|	p	8g/L	p	8r	.	.	8r	.	.	8r	.	.	8r	.	.	8r	.	8r	.	8r	.	8r	.
!	!	!LO:DY:a:rj:t=p.	!	!	!LO:SIC:s=8b-|	!	!	!	!LO:DY:a:t=p.	!	!	!LO:DY:a:t=p.	!	!	!LO:DY:a:rj	!	!	!LO:DY:a:rj:t=p.	!	!LO:DY:a:t=p.	!	!LO:DY:a:t=p.	!	!LO:DY:a:rj:t=p.	!	!LO:DY:a:rj:t=p.
8E-\L	.	p	8g/|	.	8b-/	.	8E-\	Chri-	p	8B-\	Chri-	p	8b-\	Chri-	p	8gg\	Chri-	p	8ee-\L	p	8gg\L	p	8gg\L	p	8bb-\L	p
!	!	!	!	!	!LO:SIC:s=8a-|	!	!	!	!	!	!	!	!	!	!	!	!	!	!	!	!	!	!	!	!	!
8A-\	6 x	.	8f/|	.	8a-/	.	8A-\	-ste	.	8c:\	-ste	.	8a-\	-ste	.	8ff\	-ste	.	8ff\	.	8aa-\	.	8ff\	.	8aa-\	.
!	!	!	!	!	!LO:SIC:s=8gJ|	!	!	!	!	!	!	!	!	!	!	!	!	!	!	!	!	!	!	!	!	!
8An\J	5 x	.	8e-/J|	.	8g/J	.	8An\	e-	.	8c\	e-	.	8g\	e-	.	8ee-\	e-	.	8ee-\J	.	8gg\J	.	8ee-\J	.	8gg\J	.
!	!	!	!	!	!	!	!	!	!	!	!	!	!	!	!	!	!	!	!LO:LB:g=original	!	!LO:LB:g=original	!	!	!	!	!
=8	=8	=8	=8	=8	=8	=8	=8	=8	=8	=8	=8	=8	=8	=8	=8	=8	=8	=8	=8	=8	=8	=8	=8	=8	=8	=8
4B-\	x 4	.	(<8.e-/L	.	(<8.g/L	.	4B-\	-lei-	.	4B-\	-lei-	.	4g\	-lei-	.	4ee-\	-lei-	.	4ee-\	.	4gg\	.	4ee-\	.	4gg\	.
.	.	.	32d/LL	.	32f/LL	.	.	.	.	.	.	.	.	.	.	.	.	.	.	.	.	.	.	.	.	.
.	.	.	32e-/JJJ)	.	32g/JJJ)	.	.	.	.	.	.	.	.	.	.	.	.	.	.	.	.	.	.	.	.	.
!	!	!	!	!LO:MO:mod=!null:null	!	!	!	!	!	!	!	!	!	!	!	!	!	!	!	!	!	!	!	!	!	!
!	!	!	!	!LO:HP:a:t=cres	!LO:SIC:s=8fL|	!LO:MO:null:mod=<	!	!	!	!	!	!	!	!	!	!	!	!	!	!	!	!	!	!	!	!
4BB-/	x 3	.	8d/L|	<	8f/L	.	4BB-/	-son	.	4B-\	-son	.	4f\	-son	.	4dd\	-son	.	4b-/	.	4ff\	.	4dd\	.	4ff\	.
!	!	!	!	!	!	!LO:DY:a	!	!	!	!	!	!	!	!	!	!	!	!	!	!	!	!	!	!	!	!
!	!	!	!	!	!	!LO:MO:mod=.	!	!	!	!	!	!	!	!	!	!	!	!	!	!	!	!	!	!	!	!
.	.	.	8d/|	.	8f/|	<	.	.	.	.	.	.	.	.	.	.	.	.	.	.	.	.	.	.	.	.
4r	.	.	8e-/|	.	8g/|	.	4r	.	.	4r	.	.	4r	.	.	4r	.	.	4r	.	4r	.	4r	.	4r	.
.	.	.	8c/J|	.	8an/J|	.	.	.	.	.	.	.	.	.	.	.	.	.	.	.	.	.	.	.	.	.
=9	=9	=9	=9	=9	=9	=9	=9	=9	=9	=9	=9	=9	=9	=9	=9	=9	=9	=9	=9	=9	=9	=9	=9	=9	=9	=9
*	*	*	*	*	*	*	*2\right	*	*	*2\right	*	*	*2\right	*	*	*2\right	*	*	*2\right	*	*2\right	*	*2\right	*	*2\right	*
!	!	!	!	!	!	!	!	!	!	!	!	!LO:MO:null:mod=!LO&colon;DY&colon;ed=brack	!	!	!	!	!	!	!	!	!	!	!	!	!	!
!	!	!	!	!	!	!	!	!	!	!	!	!	!	!	!	!	!	!	!	!	!	!	!	!	!	!
!	!	!LO:DY:a:rj:t=f.	!	!LO:DY:a:t=for	!	!LO:DY:a:t=for	!	!	!LO:DY:a:rj:t=f.	!	!	!LO:MO:null:mod=f	!	!	!LO:DY:a:t=for	!	!	!LO:DY:a:rj:t=f.	!	!LO:DY:a:t=f.	!	!LO:DY:a:t=f.	!	!LO:DY:a:t=f.	!	!LO:DY:a:rj:t=f.
8BB-/L	.	f	4.d/	f	4.b-\	f	2B-\	Ky-	f	2B-\	Ky-	.	2f\	Ky-	f	2dd\	Ky-	f	2.B-/	f	2.b-/	f	2.dd\	f	2.ff\	f
8BB-/	.	.	.	.	.	.	.	.	.	.	.	.	.	.	.	.	.	.	.	.	.	.	.	.	.	.
8BB-/	.	.	.	.	.	.	.	.	.	.	.	.	.	.	.	.	.	.	.	.	.	.	.	.	.	.
8BB-/	.	.	8f/	.	16dd\LL	.	.	.	.	.	.	.	.	.	.	.	.	.	.	.	.	.	.	.	.	.
.	.	.	.	.	16cc\JJ	.	.	.	.	.	.	.	.	.	.	.	.	.	.	.	.	.	.	.	.	.
!	!	!	!	!	!LO:SIC:s=(16b-LL	!	!	!	!	!	!	!	!	!	!	!	!	!	!	!	!	!	!	!	!	!
8BB-/	.	.	(<16g/LL	.	16b-/LL	.	4B-\	-ri-	.	4B-\	-ri-	.	4f\	-ri-	.	4dd\	-ri-	.	.	.	.	.	.	.	.	.
!	!	!	!	!	!LO:SIC:s=16an)	!	!	!	!	!	!	!	!	!	!	!	!	!	!	!	!	!	!	!	!	!
.	.	.	16f/)	.	16an/	.	.	.	.	.	.	.	.	.	.	.	.	.	.	.	.	.	.	.	.	.
!	!	!	!	!	!LO:SIC:s=(16g	!	!	!	!	!	!	!	!	!	!	!	!	!	!	!	!	!	!	!	!	!
8BB-/J	.	.	(<16e-/	.	16g/	.	.	.	.	.	.	.	.	.	.	.	.	.	.	.	.	.	.	.	.	.
!	!	!	!	!	!LO:SIC:s=16fJJ)	!	!	!	!	!	!	!	!	!	!	!	!	!	!	!	!	!	!	!	!	!
.	.	.	16d/JJ)	.	16f/JJ	.	.	.	.	.	.	.	.	.	.	.	.	.	.	.	.	.	.	.	.	.
=10	=10	=10	=10	=10	=10	=10	=10	=10	=10	=10	=10	=10	=10	=10	=10	=10	=10	=10	=10	=10	=10	=10	=10	=10	=10	=10
*tremolo	*	*	*	*	*	*	*	*	*	*	*	*	*	*	*	*	*	*	*	*	*	*	*	*	*	*
8BB-/L	6 4	.	(<8d/L	.	(<8f#X/L	.	2.B-\	-e	.	2.B-\	-e	.	2.g\	-e	.	2.ee-\	-e	.	2.B-/	.	2.b-/	.	2.ee-\	.	2.gg\	.
8BB-/	.	.	8e-/J)	.	8g/J)	.	.	.	.	.	.	.	.	.	.	.	.	.	.	.	.	.	.	.	.	.
8BB-/	.	.	8r	.	8r	.	.	.	.	.	.	.	.	.	.	.	.	.	.	.	.	.	.	.	.	.
8BB-/	.	.	8e-/	.	8g/	.	.	.	.	.	.	.	.	.	.	.	.	.	.	.	.	.	.	.	.	.
!	!	!	!	!	!LO:SIC:s=(16a-LL	!	!	!	!	!	!	!	!	!	!	!	!	!	!	!	!	!	!	!	!	!
8BB-/	.	.	(<16f/LL	.	16a-/LL	.	.	.	.	.	.	.	.	.	.	.	.	.	.	.	.	.	.	.	.	.
!	!	!	!	!	!LO:SIC:s=16g)	!	!	!	!	!	!	!	!	!	!	!	!	!	!	!	!	!	!	!	!	!
.	.	.	16e-/)	.	16g/	.	.	.	.	.	.	.	.	.	.	.	.	.	.	.	.	.	.	.	.	.
!	!	!	!	!	!LO:SIC:s=(16f#	!	!	!	!	!	!	!	!	!	!	!	!	!	!	!	!	!	!	!	!	!
8BB-/J	.	.	(<16d/	.	16f#/	.	.	.	.	.	.	.	.	.	.	.	.	.	.	.	.	.	.	.	.	.
!	!	!	!	!	!LO:SIC:s=16gJJ)	!	!	!	!	!	!	!	!	!	!	!	!	!	!	!	!	!	!	!	!	!
.	.	.	16e-/JJ)	.	16g/JJ	.	.	.	.	.	.	.	.	.	.	.	.	.	.	.	.	.	.	.	.	.
=11	=11	=11	=11	=11	=11	=11	=11	=11	=11	=11	=11	=11	=11	=11	=11	=11	=11	=11	=11	=11	=11	=11	=11	=11	=11	=11
*	*	*	*	*	*	*	*	*ij	*	*	*ij	*	*	*ij	*	*	*	*	*	*	*	*	*	*	*	*
8BB-/L	n7r 2	.	(<4.c/	.	(<4.an/	.	2B-\	Ky-	.	2B-\	Ky-	.	2an\	Ky-	.	2cc\	Ky-	.	2.B-/	.	2.b-/	.	2.cc\	.	2.aa\	.
8BB-/	.	.	.	.	.	.	.	.	.	.	.	.	.	.	.	.	.	.	.	.	.	.	.	.	.	.
8BB-/	.	.	.	.	.	.	.	.	.	.	.	.	.	.	.	.	.	.	.	.	.	.	.	.	.	.
!	!	!	!LO:SIC:s=16dLL	!	!	!	!	!	!	!	!	!	!	!	!	!	!	!	!	!	!	!	!	!	!	!
8BB-/	.	.	16d/LL)	.	16b-/LL	.	.	.	.	.	.	.	.	.	.	.	.	.	.	.	.	.	.	.	.	.
!	!	!	!LO:SIC:s=16e-JJ)	!	!	!	!	!	!	!	!	!	!	!	!	!	!	!	!	!	!	!	!	!	!	!
.	.	.	16e-/JJ	.	16cc/JJ)	.	.	.	.	.	.	.	.	.	.	.	.	.	.	.	.	.	.	.	.	.
!	!	!	!LO:SIC:s=(16dLL	!	!LO:SIC:s=(16b-LL	!	!	!	!	!	!	!	!	!	!	!	!	!	!	!	!	!	!	!	!	!
8BB-/	.	.	16d/LL	.	16b-/LL	.	4B-\	-ri-	.	4B-\	-ri-	.	4a\	-ri-	.	4cc\	-ri-	.	.	.	.	.	.	.	.	.
!	!	!	!LO:SIC:s=16c)	!	!LO:SIC:s=16a)	!	!	!	!	!	!	!	!	!	!	!	!	!	!	!	!	!	!	!	!	!
.	.	.	16c/	.	16a/	.	.	.	.	.	.	.	.	.	.	.	.	.	.	.	.	.	.	.	.	.
!	!	!	!LO:SIC:s=(16B-	!	!LO:SIC:s=(16g	!	!	!	!	!	!	!	!	!	!	!	!	!	!	!	!	!	!	!	!	!
8BB-/J	.	.	16B-/	.	16g/	.	.	.	.	.	.	.	.	.	.	.	.	.	.	.	.	.	.	.	.	.
!	!	!	!LO:SIC:s=16cJJ)	!	!LO:SIC:s=16aJJ)	!	!	!	!	!	!	!	!	!	!	!	!	!	!	!	!	!	!	!	!	!
.	.	.	16c/JJ	.	16a/JJ	.	.	.	.	.	.	.	.	.	.	.	.	.	.	.	.	.	.	.	.	.
!	!	!	!LO:LB:g=original	!	!LO:LB:g=original	!	!	!	!	!	!	!	!	!	!	!	!	!	!	!	!	!	!	!	!	!
=12	=12	=12	=12	=12	=12	=12	=12	=12	=12	=12	=12	=12	=12	=12	=12	=12	=12	=12	=12	=12	=12	=12	=12	=12	=12	=12
!	!	!	!	!	!LO:SIC:s=(8anL	!	!	!	!	!	!	!	!	!	!	!	!	!	!	!	!	!	!	!	!	!
8BB-/L	x 3	.	(<8c/L	.	8an\L	.	2.B-\	-e	.	2.B-\	-e	.	2.b-\	-e	.	2.dd\	-e	.	2.B-/	.	2.b-/	.	2.dd\	.	2.bb-\	.
!	!	!	!	!	!LO:SIC:s=8b-J)	!	!	!	!	!	!	!	!	!	!	!	!	!	!	!	!	!	!	!	!	!
8BB-/	.	.	8d/J)	.	8b-\J	.	.	.	.	.	.	.	.	.	.	.	.	.	.	.	.	.	.	.	.	.
8BB-/	.	.	8r	.	8r	.	.	.	.	.	.	.	.	.	.	.	.	.	.	.	.	.	.	.	.	.
8BB-/	.	.	8d/	.	8b-\	.	.	.	.	.	.	.	.	.	.	.	.	.	.	.	.	.	.	.	.	.
!	!	!	!	!	!LO:SIC:s=(16ccLL	!	!	!	!	!	!	!	!	!	!	!	!	!	!	!	!	!	!	!	!	!
8BB-/	.	.	(<16e-/LL	.	16cc\LL	.	.	.	.	.	.	.	.	.	.	.	.	.	.	.	.	.	.	.	.	.
!	!	!	!	!	!LO:SIC:s=16b-)	!	!	!	!	!	!	!	!	!	!	!	!	!	!	!	!	!	!	!	!	!
.	.	.	16d/)	.	16b-\	.	.	.	.	.	.	.	.	.	.	.	.	.	.	.	.	.	.	.	.	.
!	!	!	!	!	!LO:SIC:s=(16a	!	!	!	!	!	!	!	!	!	!	!	!	!	!	!	!	!	!	!	!	!
8BB-/J	.	.	(<16c/	.	16a\	.	.	.	.	.	.	.	.	.	.	.	.	.	.	.	.	.	.	.	.	.
!	!	!	!	!	!LO:SIC:s=16b-JJ)	!	!	!	!	!	!	!	!	!	!	!	!	!	!	!	!	!	!	!	!	!
.	.	.	16d/JJ)	.	16b-\JJ	.	.	.	.	.	.	.	.	.	.	.	.	.	.	.	.	.	.	.	.	.
=13	=13	=13	=13	=13	=13	=13	=13	=13	=13	=13	=13	=13	=13	=13	=13	=13	=13	=13	=13	=13	=13	=13	=13	=13	=13	=13
*Xtremolo	*	*	*	*	*2\right	*	*	*	*	*	*	*	*	*	*	*	*ij	*	*	*	*	*	*	*	*	*
!	!	!	!	!	!	!	!	!	!	!	!	!	!	!	!	!	!	!	!	!	!	!	!LO:TX:t=P:problem=dźwięk niewidoczny (ubytek źródła)	!	!	!
8AAn/L	6: 5:	.	8f/L	.	2cc\	.	2An\	Ky-	.	2f\	Ky-	.	2cc\	Ky-	.	2ee-\	Ky-	.	2.ff\	.	2.ff\	.	2.ee-yy\	.	2.ff\	.
8AA/	.	.	8f/	.	.	.	.	.	.	.	.	.	.	.	.	.	.	.	.	.	.	.	.	.	.	.
8AA/	.	.	8f/	.	.	.	.	.	.	.	.	.	.	.	.	.	.	.	.	.	.	.	.	.	.	.
8AA/	.	.	8f/	.	.	.	.	.	.	.	.	.	.	.	.	.	.	.	.	.	.	.	.	.	.	.
8AA/	.	.	8f/	.	16dd\LL	.	4A\	-ri-	.	4f\	-ri-	.	4cc\	-ri-	.	4ee-\	-ri-	.	.	.	.	.	.	.	.	.
.	.	.	.	.	16cc\	.	.	.	.	.	.	.	.	.	.	.	.	.	.	.	.	.	.	.	.	.
8AA/J	.	.	8f/J	.	16b-\	.	.	.	.	.	.	.	.	.	.	.	.	.	.	.	.	.	.	.	.	.
.	.	.	.	.	16cc\JJ	.	.	.	.	.	.	.	.	.	.	.	.	.	.	.	.	.	.	.	.	.
=14	=14	=14	=14	=14	=14	=14	=14	=14	=14	=14	=14	=14	=14	=14	=14	=14	=14	=14	=14	=14	=14	=14	=14	=14	=14	=14
*	*	*	*tremolo	*	*	*	*	*	*	*	*	*	*	*	*	*	*	*	*	*	*	*	*	*	*	*
8BB-/L	.	.	8f/L	.	(>8.dd\L	.	2B-\	-e	.	2f\	-e	.	2b-\	-e	.	2dd\	-e	.	2.b-/	.	2.ff\	.	2.dd\	.	2.ff\	.
*	*	*	*	*	*	*	*	*Xij	*	*	*Xij	*	*	*Xij	*	*	*Xij	*	*	*	*	*	*	*	*	*
8BB-/	.	.	8f/	.	.	.	.	.	.	.	.	.	.	.	.	.	.	.	.	.	.	.	.	.	.	.
.	.	.	.	.	16ee-\Jk)	.	.	.	.	.	.	.	.	.	.	.	.	.	.	.	.	.	.	.	.	.
8BB-/	.	.	8f/	.	16dd\LL	.	.	.	.	.	.	.	.	.	.	.	.	.	.	.	.	.	.	.	.	.
.	.	.	.	.	16ff\	.	.	.	.	.	.	.	.	.	.	.	.	.	.	.	.	.	.	.	.	.
8BB-/	.	.	8f/	.	16ee-\	.	.	.	.	.	.	.	.	.	.	.	.	.	.	.	.	.	.	.	.	.
.	.	.	.	.	16dd\JJ	.	.	.	.	.	.	.	.	.	.	.	.	.	.	.	.	.	.	.	.	.
8D/	6 x	.	8f/	.	16cc\LL	.	4B-\	e-	.	4f\	e-	.	4b-\	e-	.	4dd\	e-	.	.	.	.	.	.	.	.	.
.	.	.	.	.	16b-\	.	.	.	.	.	.	.	.	.	.	.	.	.	.	.	.	.	.	.	.	.
8D/J	.	.	8f/J	.	16an\	.	.	.	.	.	.	.	.	.	.	.	.	.	.	.	.	.	.	.	.	.
.	.	.	.	.	16b-\JJ	.	.	.	.	.	.	.	.	.	.	.	.	.	.	.	.	.	.	.	.	.
*	*	*	*Xtremolo	*	*	*	*	*	*	*	*	*	*	*	*	*	*	*	*	*	*	*	*	*	*	*
!LO:LB:g=original	!	!	!	!	!	!	!	!	!	!	!	!	!LO:LB:g=original	!	!	!	!	!	!	!	!	!	!	!	!	!
=15	=15	=15	=15	=15	=15	=15	=15	=15	=15	=15	=15	=15	=15	=15	=15	=15	=15	=15	=15	=15	=15	=15	=15	=15	=15	=15
!LO:TX:a:t=P:problem=mixed beam	!	!	!	!	!	!	!	!	!	!	!	!	!	!	!	!	!	!	!	!	!	!	!	!	!	!
8E-\L	6 x	.	16e-/LL	.	16cc\LL	.	4E-\	-lei-	.	4g\	-lei-	.	4cc\	-lei-	.	4ee-\	-lei-	.	4ee-\	.	4gg\	.	4cc\	.	4ee-\	.
.	.	.	16g/	.	16ee-\	.	.	.	.	.	.	.	.	.	.	.	.	.	.	.	.	.	.	.	.	.
8E-\	.	.	16f/	.	16dd\	.	.	.	.	.	.	.	.	.	.	.	.	.	.	.	.	.	.	.	.	.
.	.	.	16e-/JJ	.	16cc\JJ	.	.	.	.	.	.	.	.	.	.	.	.	.	.	.	.	.	.	.	.	.
8F\	x 4	.	4d/	.	4b-\	.	4F\	.	.	2f\	.	.	4b-\	.	.	4dd\	.	.	4ff\	.	4ff\	.	4b-\	.	4dd\	.
8F\	.	.	.	.	.	.	.	.	.	.	.	.	.	.	.	.	.	.	.	.	.	.	.	.	.	.
8FF/	x n:	.	4c/	.	4an\	.	4FF/	.	.	.	.	.	4an\	.	.	4cc\	.	.	4ff\	.	4ff\	.	4a\	.	4cc\	.
8FF/J	.	.	.	.	.	.	.	.	.	.	.	.	.	.	.	.	.	.	.	.	.	.	.	.	.	.
=16	=16	=16	=16	=16	=16	=16	=16	=16	=16	=16	=16	=16	=16	=16	=16	=16	=16	=16	=16	=16	=16	=16	=16	=16	=16	=16
4BB-/	.	.	4d/	.	8b-/L	.	2BB-/	-son	.	2f\	-son	.	2b-\	-son	.	2dd\	-son	.	4b-/	.	4ff\	.	4b-\	.	4dd\	.
.	.	.	.	.	8f/J	.	.	.	.	.	.	.	.	.	.	.	.	.	.	.	.	.	.	.	.	.
4BB-/	.	.	4d/	.	4f/	.	.	.	.	.	.	.	.	.	.	.	.	.	4b-/	.	4ff\	.	4b-\	.	4dd\	.
4r	.	.	4r	.	4r	.	4r	.	.	4r	.	.	4r	.	.	4r	.	.	4r	.	4r	.	4r	.	4r	.
!	!	!	!	!	!	!	!LO:LB:g=original	!	!	!	!	!	!	!	!	!LO:LB:g=original	!	!	!	!	!	!	!LO:LB:g=original	!	!	!
=17	=17	=17	=17	=17	=17	=17	=17	=17	=17	=17	=17	=17	=17	=17	=17	=17	=17	=17	=17	=17	=17	=17	=17	=17	=17	=17
!LO:MO:mod=!LO&colon;TX&colon;a&colon;i&colon;t=Solo	!	!	!	!	!	!	!	!	!	!	!	!	!LO:MO:mod=!LO&colon;TX&colon;a&colon;i&colon;t=Solo	!	!	!LO:MO:mod=!LO&colon;TX&colon;a&colon;i&colon;t=Solo	!	!	!	!	!	!	!LO:MO:mod=!LO&colon;TX&colon;a&colon;i&colon;t=Solo	!	!LO:MO:mod=!LO&colon;TX&colon;a&colon;i&colon;t=Solo	!
!LO:TX:a:t=Solo	!	!LO:MO:null:mod=p	!	!	!	!	!	!	!	!LO:TX:a:t=16:mod=	!	!	!LO:TX:a:t=Solo:rj	!	!	!LO:TX:a:t=Solo:rj	!	!	!	!	!	!	!LO:TX:a:t=Solo	!	!LO:TX:a:t=Solo:rj	!
4BB-/	.	.	4r	.	4r	.	0.r	.	.	0.r	.	.	8.dd\L	Chri-	.	8.ff\L	Chri-	.	0.r	.	0.r	.	(>8.dd\L	.	(>8.ff\L	.
.	.	.	.	.	.	.	.	.	.	.	.	.	16cc\Jk	.	.	16ee-\Jk	.	.	.	.	.	.	16cc\Jk)	.	16ee-\Jk)	.
!	!	!	!	!LO:DY:a:t=p.	!	!	!	!	!	!	!	!	!	!	!	!	!	!	!	!	!	!	!	!	!	!
!	!	!	!	!LO:MO:mod=.	!	!	!	!	!	!	!	!	!	!	!	!	!	!	!	!	!	!	!	!	!	!
4BB-/	.	.	8r	p	8r	.	.	.	.	.	.	.	4b-\	-ste	.	4dd\	-ste	.	.	.	.	.	4b-\|	.	4dd\|	.
!	!	!	!	!LO:MO:null:mod=p	!	!LO:DY:a:t=p.	!	!	!	!	!	!	!	!	!	!	!	!	!	!	!	!	!	!	!	!
.	.	.	(<16B-/LL	.	(<16d/LL	p	.	.	.	.	.	.	.	.	.	.	.	.	.	.	.	.	.	.	.	.
.	.	.	16c/JJ)	.	16e-/JJ)	.	.	.	.	.	.	.	.	.	.	.	.	.	.	.	.	.	.	.	.	.
!	!	!LO:DY:a:t=p.:rj	!	!	!	!	!	!	!	!	!	!	!	!	!	!	!	!	!	!	!	!	!	!	!	!
!	!	!LO:MO:mod=.	!	!	!	!	!	!	!	!	!	!	!	!	!	!	!	!	!	!	!	!	!	!	!	!
4r	.	p	8d/L|	.	8f/L|	.	.	.	.	.	.	.	4r	.	.	4r	.	.	.	.	.	.	4r	.	4r	.
.	.	.	8d/J|	.	8f/J|	.	.	.	.	.	.	.	.	.	.	.	.	.	.	.	.	.	.	.	.	.
!	!	!	!	!	!	!	!	!	!	!	!	!	!	!	!	!	!	!	!	!	!	!	!	!	!LO:LB:g=original	!
=18	=18	=18	=18	=18	=18	=18	=18	=18	=18	=18	=18	=18	=18	=18	=18	=18	=18	=18	=18	=18	=18	=18	=18	=18	=18	=18
4BB-/	.	.	(<8e-/L	.	(<8g/L	.	.	.	.	.	.	.	2.r	.	.	2.r	.	.	.	.	.	.	2.r	.	2.r	.
.	.	.	8d/)	.	8f/)	.	.	.	.	.	.	.	.	.	.	.	.	.	.	.	.	.	.	.	.	.
4B-\	.	.	(<8c/	.	(<8e-/	.	.	.	.	.	.	.	.	.	.	.	.	.	.	.	.	.	.	.	.	.
!	!	!	!LO:SIC:s=8B-)	!	!	!	!	!	!	!	!	!	!	!	!	!	!	!	!	!	!	!	!	!	!	!
.	.	.	8B-/J)	.	8d/)	.	.	.	.	.	.	.	.	.	.	.	.	.	.	.	.	.	.	.	.	.
!	!	!	!LO:SIC:s=(8An	!	!	!	!	!	!	!	!	!	!	!	!	!	!	!	!	!	!	!	!	!	!	!
4BB-/	.	.	(<8An/L	.	(<8c/	.	.	.	.	.	.	.	.	.	.	.	.	.	.	.	.	.	.	.	.	.
.	.	.	8B-/J)	.	8d/J)	.	.	.	.	.	.	.	.	.	.	.	.	.	.	.	.	.	.	.	.	.
!	!	!	!LO:LB:g=original	!	!LO:LB:g=original	!	!	!	!	!	!	!	!	!	!	!	!	!	!	!	!	!	!	!	!	!
=19	=19	=19	=19	=19	=19	=19	=19	=19	=19	=19	=19	=19	=19	=19	=19	=19	=19	=19	=19	=19	=19	=19	=19	=19	=19	=19
*	*	*	*	*	*	*	*	*	*	*	*	*	*	*	*	*	*ij	*	*	*	*	*	*	*	*	*
!	!	!	!LO:SIC:s=4An	!	!	!	!	!	!	!	!	!	!	!	!	!	!	!	!	!	!	!	!	!	!	!
4F\	x n	.	4An/	.	4c/|	.	.	.	.	.	.	.	8.cc\L	Chri-	.	8.ee-\L	Chri-	.	.	.	.	.	(>8.cc\L	.	(>8.ee-\L	.
.	.	.	.	.	.	.	.	.	.	.	.	.	16b-\Jk	.	.	16dd\Jk	.	.	.	.	.	.	16b-\Jk)	.	16dd\Jk)	.
4FF/	.	.	8r	.	8r	.	.	.	.	.	.	.	4an\	-ste	.	4cc\	-ste	.	.	.	.	.	4a\|	.	4cc\|	.
.	.	.	(<16A/LL	.	(<16c/LL	.	.	.	.	.	.	.	.	.	.	.	.	.	.	.	.	.	.	.	.	.
.	.	.	16B-/JJ)	.	16d/JJ)	.	.	.	.	.	.	.	.	.	.	.	.	.	.	.	.	.	.	.	.	.
4r	.	.	8c/L|	.	8e-/L|	.	.	.	.	.	.	.	4r	.	.	4r	.	.	.	.	.	.	4r	.	4r	.
.	.	.	8c/J|	.	8e-/J|	.	.	.	.	.	.	.	.	.	.	.	.	.	.	.	.	.	.	.	.	.
=20	=20	=20	=20	=20	=20	=20	=20	=20	=20	=20	=20	=20	=20	=20	=20	=20	=20	=20	=20	=20	=20	=20	=20	=20	=20	=20
4F\	.	.	(<8d/L	.	(<8f/L	.	.	.	.	.	.	.	2.r	.	.	2.r	.	.	.	.	.	.	2.r	.	2.r	.
.	.	.	8c/)	.	8e-/)	.	.	.	.	.	.	.	.	.	.	.	.	.	.	.	.	.	.	.	.	.
4FF/	.	.	(<8B-/	.	(<8d/	.	.	.	.	.	.	.	.	.	.	.	.	.	.	.	.	.	.	.	.	.
.	.	.	8An/)	.	8c/)	.	.	.	.	.	.	.	.	.	.	.	.	.	.	.	.	.	.	.	.	.
4F\	.	.	(<8G/	.	(<8B-/	.	.	.	.	.	.	.	.	.	.	.	.	.	.	.	.	.	.	.	.	.
.	.	.	8A/J)	.	8c/J)	.	.	.	.	.	.	.	.	.	.	.	.	.	.	.	.	.	.	.	.	.
=21	=21	=21	=21	=21	=21	=21	=21	=21	=21	=21	=21	=21	=21	=21	=21	=21	=21	=21	=21	=21	=21	=21	=21	=21	=21	=21
4BB-/	.	.	(<8B-/L	.	(<8d/L	.	0.r	.	.	0.r	.	.	(>4.dd\	Chri-	.	(>4.ff\	Chri-	.	0.r	.	0.r	.	(>4.dd\	.	(>4.ff\	.
.	.	.	8d/)	.	8f/)	.	.	.	.	.	.	.	.	.	.	.	.	.	.	.	.	.	.	.	.	.
4r	.	.	(<8B-/	.	(<8d/	.	.	.	.	.	.	.	.	.	.	.	.	.	.	.	.	.	.	.	.	.
.	.	.	8d/)	.	8f/)	.	.	.	.	.	.	.	8cc\)	.	.	8ee-\)	.	.	.	.	.	.	8cc\)	.	8ee-\)	.
4r	.	.	(<8B-/	.	(<8d/	.	.	.	.	.	.	.	4b-\	-ste	.	4dd\	-ste	.	.	.	.	.	4b-\|	.	4dd\|	.
.	.	.	8d/J)	.	8f/J)	.	.	.	.	.	.	.	.	.	.	.	.	.	.	.	.	.	.	.	.	.
=22	=22	=22	=22	=22	=22	=22	=22	=22	=22	=22	=22	=22	=22	=22	=22	=22	=22	=22	=22	=22	=22	=22	=22	=22	=22	=22
*	*	*	*tremolo	*	*tremolo	*	*	*	*	*	*	*	*	*ij	*	*	*	*	*	*	*	*	*	*	*	*
4F\	x n	.	8An/L	.	8c/L	.	.	.	.	.	.	.	(>4.cc\	Chri-	.	(>4.ee-\	Chri-	.	.	.	.	.	(>4.cc\	.	(>4.ee-\	.
.	.	.	8c/	.	8e-/	.	.	.	.	.	.	.	.	.	.	.	.	.	.	.	.	.	.	.	.	.
4r	.	.	8A/	.	8c/	.	.	.	.	.	.	.	.	.	.	.	.	.	.	.	.	.	.	.	.	.
.	.	.	8c/	.	8e-/	.	.	.	.	.	.	.	8b-\)	.	.	8dd\)	.	.	.	.	.	.	8b-\)	.	8dd\)	.
4r	.	.	8A/	.	8c/	.	.	.	.	.	.	.	4an\	-ste	.	4cc\	-ste	.	.	.	.	.	4a\|	.	4cc\|	.
.	.	.	8c/J	.	8e-/J	.	.	.	.	.	.	.	.	.	.	.	.	.	.	.	.	.	.	.	.	.
*	*	*	*Xtremolo	*	*Xtremolo	*	*	*	*	*	*	*	*	*	*	*	*	*	*	*	*	*	*	*	*	*
=23	=23	=23	=23	=23	=23	=23	=23	=23	=23	=23	=23	=23	=23	=23	=23	=23	=23	=23	=23	=23	=23	=23	=23	=23	=23	=23
!	!	!	!LO:SIC:s=(8B-L	!	!LO:SIC:s=(8dL	!	!	!	!	!	!	!	!	!	!	!	!	!	!	!	!	!	!	!	!	!
4B-\	.	.	8B-/L	.	8d/L	.	.	.	.	.	.	.	8b-\L	Chri-	.	8dd\L	Chri-	.	.	.	.	.	8b-\L	.	8dd\L	.
!	!	!	!LO:SIC:s=8d)	!	!LO:SIC:s=8f)	!	!	!	!	!	!	!	!	!	!	!	!	!	!	!	!	!	!	!	!	!
.	.	.	8d/	.	8f/	.	.	.	.	.	.	.	8dd\J	.	.	8ff\J	.	.	.	.	.	.	8dd\J	.	8ff\J	.
.	.	.	.	.	.	.	.	.	.	.	.	.	.	.	.	8qqff/	.	.	.	.	.	.	.	.	.	.
!	!	!	!LO:SIC:s=(8An	!	!LO:SIC:s=(8c	!	!	!	!	!	!	!	!	!	!	!	!	!	!	!	!	!	!	!	!	!
4An\	6 5	.	8An/	.	8c/	.	.	.	.	.	.	.	4cc\	-ste	.	4ee-\	-ste	.	.	.	.	.	4cc\	.	4ee-\	.
*	*	*	*	*	*	*	*	*	*	*	*	*	*	*Xij	*	*	*Xij	*	*	*	*	*	*	*	*	*
!	!	!	!LO:SIC:s=8c)	!	!LO:SIC:s=8f)	!	!	!	!	!	!	!	!	!	!	!	!	!	!	!	!	!	!	!	!	!
.	.	.	8c/	.	8f/	.	.	.	.	.	.	.	.	.	.	.	.	.	.	.	.	.	.	.	.	.
!	!	!	!LO:SIC:s=(8B-	!	!LO:SIC:s=(8d	!	!	!	!	!	!	!	!	!	!	!	!	!	!	!	!	!	!	!	!	!
4B-\	.	.	8B-/	.	8d/	.	.	.	.	.	.	.	4b-\	e-	.	4dd\	e-	.	.	.	.	.	4b-\	.	4dd\	.
!	!	!	!LO:SIC:s=8dJ)	!	!LO:SIC:s=8fJ)	!	!	!	!	!	!	!	!	!	!	!	!	!	!	!	!	!	!	!	!	!
.	.	.	8d/J	.	8f/J	.	.	.	.	.	.	.	.	.	.	.	.	.	.	.	.	.	.	.	.	.
!	!	!	!	!	!	!	!	!	!	!	!	!	!LO:LB:g=original	!	!	!	!	!	!	!	!	!	!	!	!	!
=24	=24	=24	=24	=24	=24	=24	=24	=24	=24	=24	=24	=24	=24	=24	=24	=24	=24	=24	=24	=24	=24	=24	=24	=24	=24	=24
!	!	!	!	!	!LO:SIC:s=(8dL	!	!	!	!	!	!	!	!	!	!	!	!	!	!	!	!	!	!	!	!	!
4F\	x 4	.	(<8B-/L	.	8d/L	.	.	.	.	.	.	.	8.b-\L	-lei-	.	8.dd\L	-lei-	.	.	.	.	.	4b-\	.	4dd\	.
.	.	.	16An/L	.	16c/L	.	.	.	.	.	.	.	.	.	.	.	.	.	.	.	.	.	.	.	.	.
!	!	!	!	!	!LO:SIC:s=16dJJ)	!	!	!	!	!	!	!	!	!	!	!	!	!	!	!	!	!	!	!	!	!
.	.	.	16B-/JJ)	.	16d/JJ	.	.	.	.	.	.	.	32an\LL	.	.	32cc\LL	.	.	.	.	.	.	.	.	.	.
.	.	.	.	.	.	.	.	.	.	.	.	.	32b-\JJJ	.	.	32dd\JJJ	.	.	.	.	.	.	.	.	.	.
8FF/L	x n	.	4A/	.	4c/	.	.	.	.	.	.	.	4a\	-son	.	4cc\	-son	.	.	.	.	.	4a\	.	4cc\	.
8FF/	.	.	.	.	.	.	.	.	.	.	.	.	.	.	.	.	.	.	.	.	.	.	.	.	.	.
8AAn/	.	.	4r	.	4r	.	.	.	.	.	.	.	4r	.	.	4r	.	.	.	.	.	.	4r	.	4r	.
8C/J	.	.	.	.	.	.	.	.	.	.	.	.	.	.	.	.	.	.	.	.	.	.	.	.	.	.
!LO:LB:g=original	!	!	!	!	!	!	!	!	!	!	!	!	!	!	!	!	!	!	!	!	!	!	!LO:LB:g=original	!	!	!
=25	=25	=25	=25	=25	=25	=25	=24	=25	=25	=25	=25	=25	=25	=25	=25	=25	=25	=25	=25	=25	=25	=25	=25	=25	=25	=25
!	!	!	!	!	!LO:SIC:s=(8cL	!	!	!	!	!	!	!	!	!	!	!	!	!	!	!	!	!	!	!	!	!
4F\	x n	.	(<8An/L	.	8c/L	.	0.r	.	.	0.r	.	.	2an\	Chri-	.	1.r	.	.	0.r	.	0.r	.	0.r	.	0.r	.
!	!	!	!	!	!LO:SIC:s=8e-)	!	!	!	!	!	!	!	!	!	!	!	!	!	!	!	!	!	!	!	!	!
.	.	.	8c/)	.	8e-/	.	.	.	.	.	.	.	.	.	.	.	.	.	.	.	.	.	.	.	.	.
!	!	!	!	!	!LO:SIC:s=(8c	!	!	!	!	!	!	!	!	!	!	!	!	!	!	!	!	!	!	!	!	!
4r	.	.	(<8A/	.	8c/	.	.	.	.	.	.	.	.	.	.	.	.	.	.	.	.	.	.	.	.	.
!	!	!	!	!	!LO:SIC:s=8e-)	!	!	!	!	!	!	!	!	!	!	!	!	!	!	!	!	!	!	!	!	!
.	.	.	8c/)	.	8e-/	.	.	.	.	.	.	.	.	.	.	.	.	.	.	.	.	.	.	.	.	.
!	!	!	!	!	!LO:SIC:s=(8c	!	!	!	!	!	!	!	!	!	!	!	!	!	!	!	!	!	!	!	!	!
4r	.	.	(<8A/	.	8c/	.	.	.	.	.	.	.	16b-\LL	-ste-	.	.	.	.	.	.	.	.	.	.	.	.
.	.	.	.	.	.	.	.	.	.	.	.	.	16a\JJ	.	.	.	.	.	.	.	.	.	.	.	.	.
!	!	!	!	!	!LO:SIC:s=8e-J)	!	!	!	!	!	!	!	!	!	!	!	!	!	!	!	!	!	!	!	!	!
.	.	.	8c/J)	.	8e-/J	.	.	.	.	.	.	.	16b-\LL	-e-	.	.	.	.	.	.	.	.	.	.	.	.
.	.	.	.	.	.	.	.	.	.	.	.	.	16cc\JJ	.	.	.	.	.	.	.	.	.	.	.	.	.
!	!	!	!LO:LB:g=original	!	!	!	!	!	!	!	!	!	!	!	!	!	!	!	!	!	!	!	!	!	!	!
=26	=26	=26	=26	=26	=26	=26	=26	=26	=26	=26	=26	=26	=26	=26	=26	=26	=26	=26	=26	=26	=26	=26	=26	=26	=26	=26
*	*	*	*tremolo	*	*tremolo	*	*	*	*	*	*	*	*	*	*	*	*	*	*	*	*	*	*	*	*	*
4B-\	.	.	8B-/L	.	8d/L	.	.	.	.	.	.	.	8cc\L	-lei-	.	.	.	.	.	.	.	.	.	.	.	.
.	.	.	8d/	.	8f/	.	.	.	.	.	.	.	8dd\J	.	.	.	.	.	.	.	.	.	.	.	.	.
4r	.	.	8B-/	.	8d/	.	.	.	.	.	.	.	4dd\	son	.	.	.	.	.	.	.	.	.	.	.	.
.	.	.	8d/	.	8f/	.	.	.	.	.	.	.	.	.	.	.	.	.	.	.	.	.	.	.	.	.
4r	.	.	8B-/	.	8d/	.	.	.	.	.	.	.	4r	.	.	.	.	.	.	.	.	.	.	.	.	.
.	.	.	8d/J	.	8f/J	.	.	.	.	.	.	.	.	.	.	.	.	.	.	.	.	.	.	.	.	.
!	!	!	!	!	!LO:LB:g=original	!	!	!	!	!	!	!	!	!	!	!LO:LB:g=original	!	!	!	!	!	!	!	!	!	!
=27	=27	=27	=27	=27	=27	=27	=27	=27	=27	=27	=27	=27	=27	=27	=27	=27	=27	=27	=27	=27	=27	=27	=27	=27	=27	=27
4BB-/	.	.	8B-/L	.	8d/L	.	.	.	.	.	.	.	1.r	.	.	2ff\	Chri-	.	.	.	.	.	.	.	.	.
.	.	.	8d/	.	8f/	.	.	.	.	.	.	.	.	.	.	.	.	.	.	.	.	.	.	.	.	.
4r	.	.	8B-/	.	8d/	.	.	.	.	.	.	.	.	.	.	.	.	.	.	.	.	.	.	.	.	.
.	.	.	8d/	.	8f/	.	.	.	.	.	.	.	.	.	.	.	.	.	.	.	.	.	.	.	.	.
4r	.	.	8B-/	.	8d/	.	.	.	.	.	.	.	.	.	.	16gg\LL	-ste	.	.	.	.	.	.	.	.	.
.	.	.	.	.	.	.	.	.	.	.	.	.	.	.	.	16ff\JJ	.	.	.	.	.	.	.	.	.	.
.	.	.	8d/J	.	8f/J	.	.	.	.	.	.	.	.	.	.	16ee-\LL	e-	.	.	.	.	.	.	.	.	.
.	.	.	.	.	.	.	.	.	.	.	.	.	.	.	.	16dd\JJ	.	.	.	.	.	.	.	.	.	.
=28	=28	=28	=28	=28	=28	=28	=28	=28	=28	=28	=28	=28	=28	=28	=28	=28	=28	=28	=28	=28	=28	=28	=28	=28	=28	=28
4F\	x n	.	8An/L	.	8c/L	.	.	.	.	.	.	.	.	.	.	8dd\L	-lei-	.	.	.	.	.	.	.	.	.
.	.	.	8c/	.	8e-/	.	.	.	.	.	.	.	.	.	.	8cc\J	.	.	.	.	.	.	.	.	.	.
4r	.	.	8A/	.	8c/	.	.	.	.	.	.	.	.	.	.	4cc\	-son	.	.	.	.	.	.	.	.	.
.	.	.	8c/	.	8e-/	.	.	.	.	.	.	.	.	.	.	.	.	.	.	.	.	.	.	.	.	.
4r	.	.	8A/	.	8c/	.	.	.	.	.	.	.	.	.	.	4r	.	.	.	.	.	.	.	.	.	.
.	.	.	8c/J	.	8e-/J	.	.	.	.	.	.	.	.	.	.	.	.	.	.	.	.	.	.	.	.	.
=29	=29	=29	=29	=29	=29	=29	=29	=29	=29	=29	=29	=29	=29	=29	=29	=29	=29	=29	=29	=29	=29	=29	=29	=29	=29	=29
4FF/	.	.	8An/L	.	8c/L	.	0.r	.	.	0.r	.	.	2an\	Chri-	.	2cc\	Chri-	.	0.r	.	0.r	.	2a\	.	2cc\	.
.	.	.	8c/	.	8e-/	.	.	.	.	.	.	.	.	.	.	.	.	.	.	.	.	.	.	.	.	.
4r	.	.	8A/	.	8c/	.	.	.	.	.	.	.	.	.	.	.	.	.	.	.	.	.	.	.	.	.
.	.	.	8c/	.	8e-/	.	.	.	.	.	.	.	.	.	.	.	.	.	.	.	.	.	.	.	.	.
4r	.	.	8A/	.	8c/	.	.	.	.	.	.	.	16b-\LL	-ste	.	16dd\LL	-ste	.	.	.	.	.	16b-\LL	.	16dd\LL	.
.	.	.	.	.	.	.	.	.	.	.	.	.	16a\JJ	.	.	16cc\JJ	.	.	.	.	.	.	16a\	.	16cc\	.
.	.	.	8c/J	.	8e-/J	.	.	.	.	.	.	.	16b-\LL	e-	.	16dd\LL	e-	.	.	.	.	.	16b-\	.	16dd\	.
.	.	.	.	.	.	.	.	.	.	.	.	.	16cc\JJ	.	.	16ee-\JJ	.	.	.	.	.	.	16cc\JJ	.	16ee-\JJ	.
=30	=30	=30	=30	=30	=30	=30	=30	=30	=30	=30	=30	=30	=30	=30	=30	=30	=30	=30	=30	=30	=30	=30	=30	=30	=30	=30
4BB-/	.	.	8B-/L	.	8d/L	.	.	.	.	.	.	.	2dd\	-lei-	.	2ff\	-lei-	.	.	.	.	.	2dd\	.	2ff\	.
.	.	.	8d/	.	8f/	.	.	.	.	.	.	.	.	.	.	.	.	.	.	.	.	.	.	.	.	.
4r	.	.	8B-/	.	8d/	.	.	.	.	.	.	.	.	.	.	.	.	.	.	.	.	.	.	.	.	.
.	.	.	8d/	.	8f/	.	.	.	.	.	.	.	.	.	.	.	.	.	.	.	.	.	.	.	.	.
4r	.	.	8B-/	.	8d/	.	.	.	.	.	.	.	4b-\	.	.	4dd\	.	.	.	.	.	.	4b-\	.	4dd\	.
.	.	.	8d/J	.	8f/J	.	.	.	.	.	.	.	.	.	.	.	.	.	.	.	.	.	.	.	.	.
*	*	*	*Xtremolo	*	*Xtremolo	*	*	*	*	*	*	*	*	*	*	*	*	*	*	*	*	*	*	*	*	*
!	!	!	!	!	!	!	!	!	!	!	!	!	!	!	!	!	!	!	!	!	!	!	!	!	!LO:LB:g=original	!
=31	=31	=31	=31	=31	=31	=31	=31	=31	=31	=31	=31	=31	=31	=31	=31	=31	=31	=31	=31	=31	=31	=31	=31	=31	=31	=31
4E-\	6 x	.	16c/LL	.	16e-/LL	.	.	.	.	.	.	.	8cc\	-son	.	8ee-\	-son	.	.	.	.	.	8cc\L	.	8ee-\L	.
.	.	.	16e-/	.	16g/	.	.	.	.	.	.	.	.	.	.	.	.	.	.	.	.	.	.	.	.	.
.	.	.	16d/	.	16f/	.	.	.	.	.	.	.	8cc\	e-	.	8ee-\	e-	.	.	.	.	.	16ee-\L	.	16gg\L	.
.	.	.	16c/JJ	.	16e-/JJ	.	.	.	.	.	.	.	.	.	.	.	.	.	.	.	.	.	16cc\JJ	.	16ee-\JJ	.
4F\	4 x	.	4B-/	.	4d/	.	.	.	.	.	.	.	4b-\	-lei-	.	4dd\	-lei-	.	.	.	.	.	4b-\	.	4dd\	.
4FF/	x n	.	16d/LL	.	16f/LL	.	.	.	.	.	.	.	4an\	.	.	4cc\	.	.	.	.	.	.	4a\	.	4cc\	.
.	.	.	16c/	.	16e-/	.	.	.	.	.	.	.	.	.	.	.	.	.	.	.	.	.	.	.	.	.
.	.	.	16B-/	.	16d/	.	.	.	.	.	.	.	.	.	.	.	.	.	.	.	.	.	.	.	.	.
.	.	.	16c/JJ	.	16e-/JJ	.	.	.	.	.	.	.	.	.	.	.	.	.	.	.	.	.	.	.	.	.
!	!	!	!	!	!	!	!	!	!	!	!	!	!LO:LB:g=original	!	!	!	!	!	!	!	!	!	!	!	!	!
=32	=32	=32	=32	=32	=32	=32	=32	=32	=32	=32	=32	=32	=32	=32	=32	=32	=32	=32	=32	=32	=32	=32	=32	=32	=32	=32
!	!	!	!	!	!	!LO:MO:mod=!null:null	!	!	!	!	!	!	!	!	!	!	!	!	!	!	!	!	!	!	!	!
!	!	!	!LO:SIC:s=8B-L|	!LO:MO:null:mod=<	!	!LO:HP:a:t=cres&colon;	!	!	!	!	!	!	!	!	!	!	!	!	!	!	!	!	!	!	!	!
4BB-/	.	.	8B-/L	.	8d/L|	<	.	.	.	.	.	.	4b-\	-son	.	4dd\	-son	.	.	.	.	.	4b-\	.	4dd\	.
!	!	!	!LO:SIC:s=8B-|	!	!	!	!	!	!	!	!	!	!	!	!	!	!	!	!	!	!	!	!	!	!	!
.	.	.	8B-/	.	8d/|	.	.	.	.	.	.	.	.	.	.	.	.	.	.	.	.	.	.	.	.	.
!	!	!	!	!LO:MO:mod=!null:null	!	!	!	!	!	!	!	!	!	!	!	!	!	!	!	!	!	!	!	!	!	!
!	!	!	!	!LO:HP:a:t=cres	!	!	!	!	!	!	!	!	!	!	!	!	!	!	!	!	!	!	!	!	!	!
!	!	!	!	!LO:MO:mod=.	!	!	!	!	!	!	!	!	!	!	!	!	!	!	!	!	!	!	!	!	!	!
4r	.	.	8c/|	>	8e-/|	.	.	.	.	.	.	.	4r	.	.	4r	.	.	.	.	.	.	4r	.	4r	.
.	.	.	8d/|	.	8f/|	.	.	.	.	.	.	.	.	.	.	.	.	.	.	.	.	.	.	.	.	.
4r	.	.	8e-/|	.	8g/|	.	.	.	.	.	.	.	4r	.	.	4r	.	.	.	.	.	.	4r	.	4r	.
.	.	.	8f/J|	.	8a-X/J|	.	.	.	.	.	.	.	.	.	.	.	.	.	.	.	.	.	.	.	.	.
=33	=33	=33	=33	=33	=33	=33	=33	=33	=33	=33	=33	=33	=33	=33	=33	=33	=33	=33	=33	=33	=33	=33	=33	=33	=33	=33
!	!	!LO:MO:null:mod=!LO&colon;DY&colon;ed=brack	!	!	!	!	!	!	!	!	!	!LO:MO:null:mod=!LO&colon;DY&colon;ed=brack	!	!	!LO:MO:null:mod=!LO&colon;DY&colon;ed=brack	!	!	!	!	!	!	!	!	!	!	!
!LO:MO:mod=!LO&colon;TX&colon;a&colon;i&colon;t=Tutti	!	!	!	!	!	!	!	!	!	!	!	!	!	!	!	!	!	!	!	!	!	!	!	!	!	!
!LO:TX:a:t=Tutti	!	!LO:MO:null:mod=f	!	!LO:DY:a:t=for.	!LO:SIC:s=(4.b-	!LO:DY:a:t=for.	!	!	!LO:DY:a:t=f.	!	!	!LO:MO:null:mod=f	!	!	!LO:MO:null:mod=f	!	!	!LO:DY:a	!	!LO:DY:a:t=f.	!	!LO:DY:a:t=for	!	!LO:DY:a:rj:t=f.	!	!LO:DY:a:rj:t=f.
8.E-\L	.	.	(<4.g/	f	4.b-\	f	8.E-\	Ky-	f	8.e-\	Ky-	.	8.g\	Ky-	.	8.b-\	Ky-	f	8.e-/L	f	8.ee-\L	f	8.ee-\L	f	8.gg\L	f
16E-\Jk	.	.	.	.	.	.	16E-:\	-ri-	.	16e-\	-ri-	.	16g\	-ri-	.	16b-\	-ri-	.	16e-/Jk	.	16ee-\Jk	.	16ee-\Jk	.	16gg\Jk	.
4E-\	.	.	.	.	.	.	4E-\	-e	.	4e-\	-e	.	4g\	-e	.	4b-\	-e	.	4e-/	.	4ee-\	.	4ee-\	.	4gg\	.
.	.	.	16a-/LL	.	16cc\LL	.	.	.	.	.	.	.	.	.	.	.	.	.	.	.	.	.	.	.	.	.
!	!	!	!	!	!LO:SIC:s=16b-JJ)	!	!	!	!	!	!	!	!	!	!	!	!	!	!	!	!	!	!	!	!	!
.	.	.	16g/JJ)	.	16b-\JJ	.	.	.	.	.	.	.	.	.	.	.	.	.	.	.	.	.	.	.	.	.
!	!	!	!	!	!LO:SIC:s=8ee-L|	!	!	!	!	!LO:LB:g=original	!	!	!	!	!	!LO:LB:g=original	!	!	!	!	!	!	!	!	!	!
8r	.	.	8cc/L|	.	8ee-\L	.	8r	.	.	8r	.	.	8r	.	.	8r	.	.	8r	.	8r	.	8r	.	8r	.
!	!	!	!	!	!LO:SIC:s=8ccJ|	!	!	!	!	!	!	!	!	!	!	!	!	!	!	!	!	!	!	!	!	!
8E-\	6 4	.	8a-/J|	.	8cc\J	.	8E-\	e-	.	8e-\	e-	.	8a-X\	e-	.	8cc\	e-	.	8e-/	.	8ee-\	.	8cc\	.	8aa-\	.
!	!	!	!LO:LB:g=original	!	!	!	!	!	!	!	!	!	!	!	!	!LO:LB:g=original	!	!	!	!	!	!	!	!	!	!
=34	=34	=34	=34	=34	=34	=34	=34	=34	=34	=34	=34	=34	=34	=34	=34	=34	=34	=34	=34	=34	=34	=34	=34	=34	=34	=34
!	!	!	!	!	!LO:SIC:s=(8.ccTL	!	!	!	!	!	!	!	!	!	!	!	!	!	!	!	!	!	!	!	!	!
4E-\	6 4	.	(<8.a-/L	.	8.ccT>\L	.	4E-\	-lei-	.	4e-\	-lei-	.	4a-\	-lei-	.	4cc\	-lei-	.	4e-/	.	4ee-\	.	4cc\	.	4aa-\	.
!	!	!	!	!	!LO:SIC:s=32b-LL	!	!	!	!	!	!	!	!	!	!	!	!	!	!	!	!	!	!	!	!	!
.	.	.	32g/LL	.	(>32b-\LL	.	.	.	.	.	.	.	.	.	.	.	.	.	.	.	.	.	.	.	.	.
.	.	.	32a-/JJJ)	.	32cc\JJJ)	.	.	.	.	.	.	.	.	.	.	.	.	.	.	.	.	.	.	.	.	.
!	!	!	!LO:SIC:s=8gL|	!	!LO:SIC:s=8b-L|	!	!	!	!	!	!	!	!	!	!	!	!	!	!	!	!	!	!	!	!	!
4EE-/	5 3	.	8g/L	.	8b-/L	.	4E-\	-son	.	4e-\	-son	.	4g\	-son	.	4b-\	-son	.	4e-/	.	4ee-\	.	4b-\	.	4gg\	.
.	.	.	8e-/|	.	8g/|	.	.	.	.	.	.	.	.	.	.	.	.	.	.	.	.	.	.	.	.	.
4r	.	.	8f/|	.	8a-/|	.	4r	.	.	4r	.	.	4r	.	.	4r	.	.	4r	.	4r	.	4r	.	4r	.
.	.	.	8g/J|	.	8b-/J|	.	.	.	.	.	.	.	.	.	.	.	.	.	.	.	.	.	.	.	.	.
!	!	!	!	!	!LO:LB:g=original	!	!	!	!	!	!	!	!	!	!	!	!	!	!LO:LB:g=original	!	!LO:LB:g=original	!	!	!	!	!
=35	=35	=35	=35	=35	=35	=35	=35	=35	=35	=35	=35	=35	=35	=35	=35	=35	=35	=35	=35	=35	=35	=35	=35	=35	=35	=35
4r	.	.	(<8.a-/L	.	(>8.cc\L	.	4r	.	.	4r	.	.	4r	.	.	4r	.	.	4r	.	4r	.	4r	.	4r	.
.	.	.	32g/LL	.	32b-\LL	.	.	.	.	.	.	.	.	.	.	.	.	.	.	.	.	.	.	.	.	.
.	.	.	32f/JJJ)	.	32a-\JJJ)	.	.	.	.	.	.	.	.	.	.	.	.	.	.	.	.	.	.	.	.	.
!	!	!	!LO:SIC:s=8e-L|	!LO:DY:a:t=p.	!LO:SIC:s=8gL|	!LO:DY:a:t=p.	!	!	!	!	!	!	!	!	!	!	!	!	!	!	!	!	!	!	!	!
8r	.	.	8e-/L	p	8g/L	p	8r	.	.	8r	.	.	8r	.	.	8r	.	.	8r	.	8r	.	8r	.	8r	.
!	!	!LO:DY:a:rj:t=p.	!LO:SIC:s=8g|	!	!LO:SIC:s=8b-|	!	!	!	!LO:DY:a:rj:t=p.	!	!	!LO:DY:a:t=p.	!	!	!LO:DY:a:rj:t=p.	!	!	!LO:DY:a:rj:t=p.	!	!LO:DY:a:t=p.	!	!LO:DY:a:rj	!	!LO:DY:a:rj:t=p.	!	!LO:DY:a:rj:t=p.
8E-\L	.	p	8g/	.	8b-/	.	8E-\	Chri-	p	8B-\	Chri-	p	8b-\	Chri-	p	8gg\	Chri-	p	8ee-\L	p	8gg\L	p	8gg\L	p	8bb-\L	p
!	!	!	!LO:SIC:s=8f|	!	!LO:SIC:s=8a-|	!	!	!	!	!	!	!	!	!	!	!	!	!	!	!	!	!	!	!	!	!
8A-\	6 x	.	8f/	.	8a-/	.	8A-\	-ste	.	8c\	-ste	.	8a-\	-ste	.	8ff\	-ste	.	8ff\	.	8aa-\	.	8ff\	.	8aa-\	.
!	!	!	!LO:SIC:s=8e-J|	!	!LO:SIC:s=8gJ|	!	!	!	!	!	!	!	!	!	!	!	!	!	!	!	!	!	!	!	!	!
8An\J	5 x	.	8e-/J	.	8g/J	.	8An\	e-	.	8c\	e-	.	8g\	e-	.	8ee-\	e-	.	8ee-\J	.	8gg\J	.	8ee-\J	.	8gg\J	.
!LO:LB:g=original	!	!	!	!	!	!	!	!	!	!	!	!	!	!	!	!	!	!	!	!	!	!	!LO:LB:g=original	!	!	!
=36	=36	=36	=36	=36	=36	=36	=36	=36	=36	=36	=36	=36	=36	=36	=36	=36	=36	=36	=36	=36	=36	=36	=36	=36	=36	=36
!LO:TX:a:t=P:problem=mixed beam	!	!	!	!	!	!	!	!	!	!	!	!	!	!	!	!	!	!	!	!	!LO:SIC:v:s=4ff\	!	!	!	!	!
8B-\L	x 3	.	(<8.d/L	.	(<8.f/L	.	4B-\	-lei-	.	4B-\	-lei-	.	4f\	-lei-	.	4dd\	-lei-	.	4b-/	.	4gg\	.	4dd\	.	4ff\	.
8BB-/J	.	.	.	.	.	.	.	.	.	.	.	.	.	.	.	.	.	.	.	.	.	.	.	.	.	.
.	.	.	32e-/LL	.	32g/LL	.	.	.	.	.	.	.	.	.	.	.	.	.	.	.	.	.	.	.	.	.
.	.	.	32f/JJJ)	.	32a-/JJJ)	.	.	.	.	.	.	.	.	.	.	.	.	.	.	.	.	.	.	.	.	.
!	!	!	!	!LO:MO:mod=!null:null	!	!	!	!	!	!	!	!	!	!	!	!	!	!	!	!	!	!	!	!	!	!
!	!	!	!	!LO:HP:a:t=cres	!LO:SIC:s=8gL|	!	!	!	!	!	!	!	!	!	!	!	!	!	!	!	!LO:SIC:v:s=4ee-\	!	!	!	!	!
!	!	!	!	!LO:MO:mod=.	!	!	!	!	!	!	!	!	!	!	!	!	!	!	!	!	!	!	!	!	!	!
4E-\	.	.	8e-/L|	<	8g/L	.	4E-\	-son	.	4B-\	-son	.	4g\	-son	.	4ee-\	-son	.	4g/	.	4ff\	.	4ee-\	.	4gg\	.
!	!	!	!	!	!LO:SIC:s=8gJ|	!	!	!	!	!	!	!	!	!	!	!	!	!	!	!	!	!	!	!	!	!
.	.	.	8e-/J|	.	8g/J	.	.	.	.	.	.	.	.	.	.	.	.	.	.	.	.	.	.	.	.	.
!	!	!	!	!	!	!LO:MO:mod=!null:null	!	!	!	!	!	!	!	!	!	!	!	!	!	!	!	!	!	!	!	!
!	!	!	!	!LO:MO:null:mod=<	!	!LO:HP:a:t=cres	!	!	!	!	!	!	!	!	!	!	!	!	!	!	!	!	!	!	!	!
4r	.	.	(<16e-/LL	.	(<16g/LL	<	4r	.	.	4r	.	.	4r	.	.	4r	.	.	4r	.	4r	.	4r	.	4r	.
.	.	.	16f/)	.	16a-/)	.	.	.	.	.	.	.	.	.	.	.	.	.	.	.	.	.	.	.	.	.
.	.	.	(<16f#X/	.	(<16an/	.	.	.	.	.	.	.	.	.	.	.	.	.	.	.	.	.	.	.	.	.
.	.	.	16g/JJ)	.	16b-/JJ)	.	.	.	.	.	.	.	.	.	.	.	.	.	.	.	.	.	.	.	.	.
=37	=37	=37	=37	=37	=37	=37	=37	=37	=37	=37	=37	=37	=37	=37	=37	=37	=37	=37	=37	=37	=37	=37	=37	=37	=37	=37
!	!	!LO:DY:a:t=for.	!	!LO:DY:a:t=for	!LO:SIC:s=(4.b-	!LO:DY:a:t=for.	!	!	!LO:DY:a:t=f.	!	!	!LO:DY:a:t=for	!	!	!LO:DY:a:t=f.	!	!	!LO:DY:a	!	!LO:DY:a:t=f.	!	!LO:DY:a:t=for	!	!LO:DY:a:t=f.	!	!LO:DY:a:rj:t=f.
8.E-\L	.	f	(<4.g/	f	4.b-\	f	8.E-\	Ky-	f	8.e-\	Ky-	f	8.g\	Ky-	f	8.b-\	Ky-	f	8.e-/L	f	8.ee-\L	f	8.ee-\L	f	8.gg\L	f
16E-\Jk	.	.	.	.	.	.	16E-\	-ri-	.	16e-\	-ri-	.	16g\	-ri-	.	16b-\	-ri-	.	16e-/Jk	.	16ee-\Jk	.	16ee-\Jk	.	16gg\Jk	.
4E-\	.	.	.	.	.	.	4E-\	-e	.	4e-\	-e	.	4g\	-e	.	4b-\	-e	.	4e-/	.	4ee-\	.	4ee-\	.	4gg\	.
.	.	.	16a-/LL	.	16cc\LL	.	.	.	.	.	.	.	.	.	.	.	.	.	.	.	.	.	.	.	.	.
!	!	!	!	!	!LO:SIC:s=16b-JJ)	!	!	!	!	!	!	!	!	!	!	!	!	!	!	!	!	!	!	!	!	!
.	.	.	16g/JJ)	.	16b-\JJ	.	.	.	.	.	.	.	.	.	.	.	.	.	.	.	.	.	.	.	.	.
!	!	!	!	!	!LO:SIC:s=8ee-L|	!	!	!	!	!	!	!	!	!	!	!	!	!	!	!	!	!	!	!	!	!
8r	.	.	8cc/L|	.	8ee-\L	.	8r	.	.	8r	.	.	8r	.	.	8r	.	.	8r	.	8r	.	8r	.	8r	.
!	!	!	!	!	!LO:SIC:s=8ccJ|	!	!	!	!	!	!	!	!	!	!	!	!	!	!	!	!	!	!	!	!	!
8E-\	6: 4:	.	8a-/J|	.	8cc\J	.	8E-\	e-	.	8e-\	e-	.	8a-\	e-	.	8cc\	e-	.	8e-/	.	8ee-\	.	8cc\	.	8aa-\	.
!	!	!	!	!	!	!	!	!	!	!	!	!	!	!	!	!	!	!	!	!	!	!	!	!	!LO:LB:g=original	!
=38	=38	=38	=38	=38	=38	=38	=38	=38	=38	=38	=38	=38	=38	=38	=38	=38	=38	=38	=38	=38	=38	=38	=38	=38	=38	=38
!	!	!	!	!	!LO:SIC:s=(8.ccTL	!	!	!	!	!	!	!	!	!	!	!	!	!	!	!	!	!	!	!	!	!
4E-\	.	.	(<8.a-/L	.	8.ccT>\L	.	4E-\	-lei-	.	4e-\	-lei-	.	4a-\	-lei-	.	4cc\	-lei-	.	4e-/	.	4ee-\	.	4cc\	.	4aa-\	.
!	!	!	!	!	!LO:SIC:s=32b-LL	!	!	!	!	!	!	!	!	!	!	!	!	!	!	!	!	!	!	!	!	!
.	.	.	32g/LL	.	(>32b-\LL	.	.	.	.	.	.	.	.	.	.	.	.	.	.	.	.	.	.	.	.	.
.	.	.	32a-/JJJ)	.	32cc\JJJ)	.	.	.	.	.	.	.	.	.	.	.	.	.	.	.	.	.	.	.	.	.
!	!	!	!LO:SIC:s=8gL|	!	!LO:SIC:s=8b-L|	!	!	!	!	!	!	!	!	!	!	!	!	!	!	!	!	!	!	!	!	!
4EE-/	5 3	.	8g/L	.	8b-/L	.	4E-\	-son	.	4e-\	-son	.	4g\	-son	.	4b-\	-son	.	4e-/	.	4ee-\	.	4b-\	.	4gg\	.
.	.	.	8e-/|	.	8g/|	.	.	.	.	.	.	.	.	.	.	.	.	.	.	.	.	.	.	.	.	.
4r	.	.	8f/|	.	8a-/|	.	4r	.	.	4r	.	.	4r	.	.	4r	.	.	4r	.	4r	.	4r	.	4r	.
.	.	.	8g/J|	.	8b-/J|	.	.	.	.	.	.	.	.	.	.	.	.	.	.	.	.	.	.	.	.	.
!	!	!	!	!	!	!	!	!	!	!	!	!	!LO:LB:g=original	!	!	!	!	!	!	!	!	!	!	!	!	!
=39	=39	=39	=39	=39	=39	=39	=39	=39	=39	=39	=39	=39	=39	=39	=39	=39	=39	=39	=39	=39	=39	=39	=39	=39	=39	=39
4r	.	.	(<8.a-/L	.	(>8.cc\L	.	4r	.	.	4r	.	.	4r	.	.	4r	.	.	4r	.	4r	.	4r	.	4r	.
.	.	.	32g/LL	.	32b-\LL	.	.	.	.	.	.	.	.	.	.	.	.	.	.	.	.	.	.	.	.	.
.	.	.	32f/JJJ)	.	32a-\JJJ)	.	.	.	.	.	.	.	.	.	.	.	.	.	.	.	.	.	.	.	.	.
!	!	!	!LO:LB:g=original	!	!	!	!	!	!	!	!	!	!	!	!	!	!	!	!	!	!	!	!	!	!	!
!	!	!	!LO:SIC:s=8e-L|	!LO:DY:a:t=p.	!LO:SIC:s=8gL|	!LO:DY:a:t=p.	!	!	!	!	!	!	!	!	!	!	!	!	!	!	!	!	!	!	!	!
8r	.	.	8e-/L	p	8g/L	p	8r	.	.	8r	.	.	8r	.	.	8r	.	.	8r	.	8r	.	8r	.	8r	.
!	!	!LO:DY:a:rj:t=p.	!LO:SIC:s=8g|	!	!LO:SIC:s=8b-|	!	!	!	!LO:DY:a:t=p.	!	!	!LO:DY:a	!	!	!LO:DY:a:rj	!	!	!LO:DY:a:rj	!	!LO:DY:a:t=p.	!	!LO:DY:a	!	!LO:DY:a:rj:t=p.	!	!LO:DY:a:rj:t=p.
8E-\L	.	p	8g/J	.	8b-/	.	8E-\	Chri-	p	8B-\	Chri-	p	8b-\	Chri-	p	8gg\	Chri-	p	8ee-\L	p	8gg\L	p	8gg\L	p	8bb-\L	p
!	!	!	!LO:SIC:s=8f|	!	!LO:SIC:s=8a-|	!	!	!	!	!LO:LB:g=original	!	!	!	!	!	!LO:LB:g=original	!	!	!	!	!	!	!	!	!	!
8A-\	6 x	.	8f/L|	.	8a-/	.	8A-\	-ste	.	8c\	-ste	.	8a-\	-ste	.	8ff\	-ste	.	8ff\	.	8aa-\	.	8ff\	.	8aa-\	.
!	!	!	!	!	!LO:SIC:s=8gJ|	!	!	!	!	!	!	!	!	!	!	!	!	!	!	!	!	!	!	!	!	!
8An\J	5 x	.	8e-/J|	.	8g/J	.	8An\	e-	.	8c\	e-	.	8g\	e-	.	8ee-\	e-	.	8ee-\J	.	8gg\J	.	8ee-\J	.	8gg\J	.
=40	=40	=40	=40	=40	=40	=40	=40	=40	=40	=40	=40	=40	=40	=40	=40	=40	=40	=40	=40	=40	=40	=40	=40	=40	=40	=40
4B-\	x 4	.	(<8.e-/L	.	(<8.g/L	.	4B-\	-lei-	.	4B-\	-lei-	.	4g\	-lei-	.	4ee-\	-lei-	.	4ee-\	.	4gg\	.	4ee-\	.	4gg\	.
.	.	.	32d/LL	.	32f/LL	.	.	.	.	.	.	.	.	.	.	.	.	.	.	.	.	.	.	.	.	.
.	.	.	32e-/JJJ)	.	32g/JJJ)	.	.	.	.	.	.	.	.	.	.	.	.	.	.	.	.	.	.	.	.	.
4BB-/	x 3	.	4d/	.	4f/	.	4BB-/	-son	.	4B-\	-son	.	4f\	-son	.	4dd\	-son	.	4b-/	.	4ff\	.	4dd\	.	4ff\	.
4r	.	.	4r	.	4r	.	4r	.	.	4r	.	.	4r	.	.	4r	.	.	4r	.	4r	.	4r	.	4r	.
!	!	!	!	!	!LO:LB:g=original	!	!	!	!	!LO:LB:g=original	!	!	!	!	!	!LO:LB:g=original	!	!	!	!	!	!	!	!	!	!
=41	=41	=41	=41	=41	=41	=41	=41	=41	=41	=41	=41	=41	=41	=41	=41	=41	=41	=41	=41	=41	=41	=41	=41	=41	=41	=41
!	!	!	!	!	!	!	!	!	!	!	!	!	!	!	!	!	!	!LO:MO:null:mod=!LO&colon;DY&colon;ed=brack	!	!	!	!	!	!LO:MO:null:mod=!LO&colon;DY&colon;ed=brack	!	!LO:MO:null:mod=!LO&colon;DY&colon;ed=brack
!	!	!	!	!	!	!	!	!	!	!	!	!	!	!	!	!	!	!	!	!	!	!	!	!	!	!
!	!	!LO:DY:a:t=for	!	!LO:DY:a:t=for	!	!LO:DY:a:t=for	!	!	!LO:DY:a:t=f.	!	!	!LO:DY:a:t=f.	!	!	!LO:DY:a:rj:t=f.	!	!	!LO:MO:null:mod=f	!	!LO:DY:a:t=f.	!	!LO:DY:a:rj:t=f.	!	!LO:MO:null:mod=f	!	!LO:MO:null:mod=f
4BB-/	.	f	8d/L	f	8f/L	f	4BB-/	Ky-	f	2B-\	Ky-	f	2a-\	Ky-	f	2ff\	Ky-	.	2.b-/	f	2.ff\	f	2.ff\	.	2.aa-\	.
.	.	.	8f/J	.	8a-/J	.	.	.	.	.	.	.	.	.	.	.	.	.	.	.	.	.	.	.	.	.
!	!	!	!	!	!	!	!	!LO:MO:mod=.	!	!	!	!	!	!	!	!	!	!	!	!	!	!	!	!	!	!
4D/	.	.	8r	.	8r	.	4D/	-ri-	.	.	.	.	.	.	.	.	.	.	.	.	.	.	.	.	.	.
.	.	.	8f/L	.	8a-/L	.	.	.	.	.	.	.	.	.	.	.	.	.	.	.	.	.	.	.	.	.
!	!	!	!	!	!	!	!	!LO:MO:mod=-ri-	!	!	!	!	!	!	!	!	!	!	!	!	!	!	!	!	!	!
4BB-/	.	.	8g/	.	8b-/	.	4BB-/	-e	.	4B-\	-ri-	.	4a-\	-ri-	.	4ff\	-ri-	.	.	.	.	.	.	.	.	.
.	.	.	8f/J	.	8a-/J	.	.	.	.	.	.	.	.	.	.	.	.	.	.	.	.	.	.	.	.	.
=42	=42	=42	=42	=42	=42	=42	=42	=42	=42	=42	=42	=42	=42	=42	=42	=42	=42	=42	=42	=42	=42	=42	=42	=42	=42	=42
!	!	!	!	!	!	!	!	!LO:MO:mod=-e	!	!	!	!	!	!	!	!	!	!	!	!	!	!	!	!	!	!
4E-\	.	.	8f/L	.	8a-/L	.	2E-\	e-	.	2B-\	-e	.	2g\	-e	.	2ee-\	-e	.	2.g/	.	2.ee-\	.	2.ee-\	.	2.gg\	.
.	.	.	8e-/J	.	8g/J	.	.	.	.	.	.	.	.	.	.	.	.	.	.	.	.	.	.	.	.	.
4EE-/	.	.	8r	.	8r	.	.	.	.	.	.	.	.	.	.	.	.	.	.	.	.	.	.	.	.	.
.	.	.	8g/L	.	8b-/L	.	.	.	.	.	.	.	.	.	.	.	.	.	.	.	.	.	.	.	.	.
!	!	!	!	!	!	!	!	!LO:MO:null:mod=e-	!	!	!	!	!	!	!	!	!	!	!	!	!	!	!	!	!	!
4E-\	.	.	8f/	.	8a-/	.	4E-\	.	.	4B-\	e-	.	4g\	e-	.	4ee-\	e-	.	.	.	.	.	.	.	.	.
.	.	.	8e-/J	.	8g/J	.	.	.	.	.	.	.	.	.	.	.	.	.	.	.	.	.	.	.	.	.
=43	=43	=43	=43	=43	=43	=43	=43	=43	=43	=43	=43	=43	=43	=43	=43	=43	=43	=43	=43	=43	=43	=43	=43	=43	=43	=43
4BB-/	.	.	8d/L	.	8f/L	.	4BB-/	-lei-	.	2.B-\	-lei-	.	2.a-\	-lei-	.	2.ff\	-lei-	.	2.b-/	.	2.ff\	.	2.ff\	.	2.aa-\	.
.	.	.	8f/J	.	8a-/J	.	.	.	.	.	.	.	.	.	.	.	.	.	.	.	.	.	.	.	.	.
4D/	.	.	8r	.	8r	.	4D/	.	.	.	.	.	.	.	.	.	.	.	.	.	.	.	.	.	.	.
.	.	.	8f/L	.	8a-/L	.	.	.	.	.	.	.	.	.	.	.	.	.	.	.	.	.	.	.	.	.
4BB-/	.	.	8g/	.	8b-/	.	4BB-/	.	.	.	.	.	.	.	.	.	.	.	.	.	.	.	.	.	.	.
.	.	.	8f/J	.	8a-/J	.	.	.	.	.	.	.	.	.	.	.	.	.	.	.	.	.	.	.	.	.
!	!	!	!	!	!	!	!	!	!	!	!	!	!	!	!	!	!	!	!	!	!	!	!LO:LB:g=original	!	!	!
=44	=44	=44	=44	=44	=44	=44	=44	=44	=44	=44	=44	=44	=44	=44	=44	=44	=44	=44	=44	=44	=44	=44	=44	=44	=44	=44
4E-\	.	.	8f/L	.	8a-/L	.	2E-\	-son	.	2B-\	-son	.	2g\	-son	.	2ee-\	-son	.	2.g/	.	2.ee-\	.	2.ee-\	.	2.gg\	.
.	.	.	8e-/J	.	8g/J	.	.	.	.	.	.	.	.	.	.	.	.	.	.	.	.	.	.	.	.	.
4EE-/	.	.	8r	.	8r	.	.	.	.	.	.	.	.	.	.	.	.	.	.	.	.	.	.	.	.	.
.	.	.	8g/L	.	8b-/L	.	.	.	.	.	.	.	.	.	.	.	.	.	.	.	.	.	.	.	.	.
4E-\	.	.	8f/	.	8a-/	.	4E-\	e-	.	4B-\	e-	.	4g\	e-	.	4ee-\	e-	.	.	.	.	.	.	.	.	.
!	!	!	!LO:TX:b:t=Verte Cito:mod=	!	!	!	!	!	!	!	!	!	!	!	!	!	!	!	!	!	!	!	!	!	!	!
.	.	.	8e-/J	.	8g/J	.	.	.	.	.	.	.	.	.	.	.	.	.	.	.	.	.	.	.	.	.
!LO:LB:g=original	!	!	!LO:PB:g=original	!	!	!	!	!	!	!	!	!	!	!	!	!	!	!	!LO:LB:g=original	!	!LO:LB:g=original	!	!	!	!	!
=45	=45	=45	=45	=45	=45	=45	=45	=45	=45	=45	=45	=45	=45	=45	=45	=45	=45	=45	=45	=45	=45	=45	=45	=45	=45	=45
!	!	!	!	!LO:DY:a:t=for	!	!LO:DY:b:t=rf.	!	!	!	!	!	!	!	!	!	!	!	!	!	!	!	!	!	!	!	!
!	!	!	!	!LO:MO:null:mod=sf	!	!LO:MO:null:mod=sf	!	!	!	!	!	!	!	!	!	!	!	!	!	!	!	!	!	!	!	!
4B-\	.	.	(<8.d/L	f	(<8.f/L	rf	4B-\	-lei-	.	4B-\	-lei-	.	4f\	-lei-	.	4dd\	-lei-	.	4b-/	.	4ff\	.	4dd\	.	4ff\	.
.	.	.	16e-/Jk)	.	16g/Jk)	.	.	.	.	.	.	.	.	.	.	.	.	.	.	.	.	.	.	.	.	.
4BB-/	.	.	8f/L|	.	8a-/L|	.	4BB-/	-son	.	4B-\	-son	.	4f\	-son	.	4dd\	-son	.	4b-/	.	4ff\	.	4dd\	.	4ff\	.
.	.	.	8f/|	.	8a-/|	.	.	.	.	.	.	.	.	.	.	.	.	.	.	.	.	.	.	.	.	.
8r	.	.	8f/|	.	8a-/|	.	8r	.	.	8r	.	.	8r	.	.	8r	.	.	8r	.	8r	.	8r	.	8r	.
*	*	*	*	*	*	*	*	*	*	*	*ij	*	*	*ij	*	*	*	*	*	*	*	*	*	*	*	*
8D\	6 5	.	8f/J|	.	8a-/J|	.	8BB-/	e-	.	8B-\	e-	.	8f\	e-	.	8dd\	e-	.	8b-/	.	8ff\	.	8dd\	.	8ff\	.
=46	=46	=46	=46	=46	=46	=46	=46	=46	=46	=46	=46	=46	=46	=46	=46	=46	=46	=46	=46	=46	=46	=46	=46	=46	=46	=46
!	!	!	!	!LO:DY:a:t=f.	!	!LO:DY:b:t=rf.	!	!	!	!	!	!	!	!	!	!	!	!	!	!	!	!	!	!	!	!
!	!	!	!	!LO:MO:null:mod=sf	!	!LO:MO:null:mod=sf	!	!	!	!	!	!	!	!	!	!	!	!	!	!	!	!	!	!	!	!
4E-\	.	.	(<8.e-/L	f	(<8.g/L	rf	4E-\	-lei-	.	4B-\	-lei-	.	4g\	-lei-	.	4ee-\	-lei-	.	4ee-\	.	4gg\	.	4ee-\	.	4gg\	.
.	.	.	16f/Jk)	.	16a-/Jk)	.	.	.	.	.	.	.	.	.	.	.	.	.	.	.	.	.	.	.	.	.
4EE-/	.	.	8g/L|	.	8b-/L|	.	4E-\	-son	.	4B-\	-son	.	4g\	-son	.	4ee-\	-son	.	4ee-\	.	4gg\	.	4ee-\	.	4gg\	.
*	*	*	*	*	*	*	*	*	*	*	*	*	*	*Xij	*	*	*	*	*	*	*	*	*	*	*	*
.	.	.	8g/|	.	8b-/|	.	.	.	.	.	.	.	.	.	.	.	.	.	.	.	.	.	.	.	.	.
8r	.	.	8g/|	.	8b-/|	.	8r	.	.	8r	.	.	8r	.	.	8r	.	.	8r	.	8r	.	8r	.	8r	.
8E-\	.	.	8g/J|	.	8b-/J|	.	8E-\	e-	.	8B-\	e-	.	8g\	e-	.	8ee-\	e-	.	8ee-\	.	8gg\	.	8ee-\	.	8gg\	.
!	!	!	!	!	!LO:LB:g=original	!	!	!	!	!	!	!	!LO:LB:g=original	!	!	!	!	!	!	!	!	!	!	!	!LO:LB:g=original	!
=47	=47	=47	=47	=47	=47	=47	=47	=47	=47	=47	=47	=47	=47	=47	=47	=47	=47	=47	=47	=47	=47	=47	=47	=47	=47	=47
!	!	!	!	!LO:DY:a	!	!LO:DY:b:t=for	!	!	!	!	!	!	!	!	!	!	!	!	!	!	!	!	!	!	!	!
!	!	!	!	!LO:MO:null:mod=sf	!	!LO:MO:null:mod=sf	!	!	!	!LO:SIC:s=4c	!	!	!	!	!	!	!	!	!	!	!	!	!	!	!	!
4A-\	6 x	.	16g/LL	f	16b-/LL	f	4A-\	-lei-	.	(>4c\	-lei-	.	4a-\	-lei-	.	4ff\	-lei-	.	4ff\	.	4aa-\	.	4ff\	.	4aa-\	.
.	.	.	16f/	.	16a-/	.	.	.	.	.	.	.	.	.	.	.	.	.	.	.	.	.	.	.	.	.
.	.	.	16a-/	.	16cc/	.	.	.	.	.	.	.	.	.	.	.	.	.	.	.	.	.	.	.	.	.
.	.	.	16f/JJ	.	16a-/JJ	.	.	.	.	.	.	.	.	.	.	.	.	.	.	.	.	.	.	.	.	.
!	!	!	!	!	!	!	!	!	!	!LO:SIC:s=2B-	!	!	!	!	!	!	!	!	!	!	!	!	!	!	!	!
4B-\	x 4	.	4e-/	.	4g/	.	4B-\	.	.	2B-\)	.	.	4g\	.	.	4ee-\	.	.	4ee-\	.	4gg\	.	4ee-\	.	4gg\	.
4BB-/	x 3	.	4d/	.	4f/	.	4BB-/	.	.	.	.	.	4f\	.	.	4dd\	.	.	4b-/	.	4ff\	.	4dd\	.	4ff\	.
=48	=48	=48	=48	=48	=48	=48	=48	=48	=48	=48	=48	=48	=48	=48	=48	=48	=48	=48	=48	=48	=48	=48	=48	=48	=48	=48
4E-\	.	.	(<8e-/L	.	(<8g/L	.	4E-\	-son	.	4B-\	-son	.	4g\	-son	.	4ee-\	-son	.	4g/	.	4ee-\	.	4ee-\	.	4gg\	.
*	*	*	*	*	*	*	*	*	*	*	*Xij	*	*	*	*	*	*	*	*	*	*	*	*	*	*	*
!	!	!	!LO:SIC:s=8gJ)	!	!	!	!	!	!	!	!	!	!	!	!	!	!	!	!	!	!	!	!	!	!	!
.	.	.	8g/)	.	8b-/J)	.	.	.	.	.	.	.	.	.	.	.	.	.	.	.	.	.	.	.	.	.
!	!	!	!LO:SIC:s=8gL|	!	!	!	!	!	!	!	!	!	!	!	!	!	!	!	!	!	!	!	!	!	!	!
4r	.	.	8g/|	.	8b-\L|	.	4r	.	.	4r	.	.	4r	.	.	4r	.	.	4r	.	4r	.	4r	.	4r	.
.	.	.	8g/|	.	8b-\|	.	.	.	.	.	.	.	.	.	.	.	.	.	.	.	.	.	.	.	.	.
4r	.	.	8a-/|	.	8cc\|	.	4r	.	.	4r	.	.	4r	.	.	4r	.	.	4r	.	4r	.	4r	.	4r	.
.	.	.	8f/J|	.	8dd\J|	.	.	.	.	.	.	.	.	.	.	.	.	.	.	.	.	.	.	.	.	.
!	!	!	!	!	!	!	!	!	!	!LO:LB:g=original	!	!	!	!	!	!LO:LB:g=original	!	!	!	!	!	!	!	!	!	!
=49	=49	=49	=49	=49	=49	=49	=49	=49	=49	=49	=49	=49	=49	=49	=49	=49	=49	=49	=49	=49	=49	=49	=49	=49	=49	=49
!	!	!	!	!	!LO:SIC:s=(8.ee-L	!	!	!	!	!	!	!	!	!	!	!	!	!	!	!	!	!	!	!	!	!
4r	.	.	(<8.g/L	.	8.ee-\L	.	4r	.	.	4r	.	.	4r	.	.	4r	.	.	4r	.	4r	.	4r	.	4r	.
!	!	!	!	!	!LO:SIC:s=32ddLL	!	!	!	!	!	!	!	!	!	!	!	!	!	!	!	!	!	!	!	!	!
.	.	.	16a-/Jk)	.	(>32dd\LL	.	.	.	.	.	.	.	.	.	.	.	.	.	.	.	.	.	.	.	.	.
.	.	.	.	.	32cc\JJJ)	.	.	.	.	.	.	.	.	.	.	.	.	.	.	.	.	.	.	.	.	.
8r	.	.	8g/L|	.	8b-/L|	.	8r	.	.	8r	.	.	8r	.	.	8r	.	.	8r	.	8r	.	8r	.	8r	.
!	!	!	!	!	!LO:SIC:s=8g|	!	!	!	!	!	!	!	!	!	!	!	!	!	!	!	!	!	!	!	!	!
8E-\L	6 x	.	8e-/|	.	8g/J|	.	8E-\	e-	.	8B-\	e-	.	8g\	e-	.	8ee-\	e-	.	8ee-\L	.	8gg\L	.	8ee-\L	.	8gg\L	.
!	!	!	!	!	!LO:SIC:s=8a-|	!	!	!	!	!	!	!	!	!	!	!	!	!	!	!	!	!	!	!	!	!
8F\	.	.	8d/|	.	8a-/L|	.	8F\L	-lei-	.	4B-\	-lei-	.	8a-\L	-lei-	.	8dd\L	-lei-	.	8b-\	.	8ff\	.	8dd\	.	8aa-\	.
8G\J	6 x	.	8e-/J|	.	8b-/J|	.	8G\J	.	.	.	.	.	8b-\J	.	.	8ee-\J	.	.	8ee-\J	.	8gg\J	.	8ee-\J	.	8bb-\J	.
!	!	!	!	!	!	!	!	!	!	!	!	!	!	!	!	!LO:LB:g=original	!	!	!	!	!	!	!	!	!	!
=50	=50	=50	=50	=50	=50	=50	=50	=50	=50	=50	=50	=50	=50	=50	=50	=50	=50	=50	=50	=50	=50	=50	=50	=50	=50	=50
4A-\	6 x	.	(<16f/LL	.	8cc/L	.	8A-\	-son	.	8c\	-son	.	8cc\	-son	.	8ff\	-son	.	4ff\	.	4aa-\	.	4ff\	.	4aa-\	.
.	.	.	16a-/)	.	.	.	.	.	.	.	.	.	.	.	.	.	.	.	.	.	.	.	.	.	.	.
.	.	.	(<16g/	.	16b-/L	.	8A-\	e-	.	8c\	e-	.	8a-\	e-	.	8ff\	e-	.	.	.	.	.	.	.	.	.
.	.	.	16f/JJ)	.	16a-/JJ	.	.	.	.	.	.	.	.	.	.	.	.	.	.	.	.	.	.	.	.	.
4B-\	x 4	.	4e-/	.	4g/	.	4B-\	-lei-	.	2B-\	-lei-	.	4g\	-lei-	.	4ee-\	-lei-	.	4ee-\	.	4gg\	.	4ee-\	.	4gg\	.
4BB-/	x 3	.	4d/	.	4f/	.	4BB-/	.	.	.	.	.	4f\	.	.	4dd\	.	.	4b-/	.	4ff\	.	4dd\	.	4ff\	.
!	!	!	!LO:LB:g=original	!	!	!	!	!	!	!LO:LB:g=original	!	!	!	!	!	!LO:LB:g=original	!	!	!	!	!	!	!	!	!	!
=51	=51	=51	=51	=51	=51	=51	=51	=51	=51	=51	=51	=51	=51	=51	=51	=51	=51	=51	=51	=51	=51	=51	=51	=51	=51	=51
!	!	!	!	!	!LO:SIC:s=(8gL	!	!	!	!	!	!	!	!	!	!	!	!	!	!	!	!	!	!	!	!	!
4E-\	.	.	(<8e-/L	.	8g/L	.	4E-\	-son	.	4B-\	-son	.	4g\	-son	.	4ee-\	-son	.	4g/	.	4ee-\	.	4ee-\	.	4gg\	.
!	!	!	!LO:SIC:s=8gJ)	!	!LO:SIC:s=8b-J)	!	!	!	!	!	!	!	!	!	!	!	!	!	!	!	!	!	!	!	!	!
.	.	.	8g/)	.	8b-/J	.	.	.	.	.	.	.	.	.	.	.	.	.	.	.	.	.	.	.	.	.
!	!	!	!LO:SIC:s=8gL|	!	!	!	!	!	!	!	!	!	!	!	!	!	!	!	!	!	!	!	!	!	!	!
4r	.	.	8g/|	.	8b-\L|	.	4r	.	.	4r	.	.	4r	.	.	4r	.	.	4r	.	4r	.	4r	.	4r	.
.	.	.	8g/|	.	8b-\|	.	.	.	.	.	.	.	.	.	.	.	.	.	.	.	.	.	.	.	.	.
4r	.	.	8a-/|	.	8cc\|	.	4r	.	.	4r	.	.	4r	.	.	4r	.	.	4r	.	4r	.	4r	.	4r	.
.	.	.	8f/J|	.	8dd\J|	.	.	.	.	.	.	.	.	.	.	.	.	.	.	.	.	.	.	.	.	.
!	!	!	!	!	!	!	!	!	!	!	!	!	!	!	!	!	!	!	!	!	!	!	!LO:LB:g=original	!	!	!
=52	=52	=52	=52	=52	=52	=52	=52	=52	=52	=52	=52	=52	=52	=52	=52	=52	=52	=52	=52	=52	=52	=52	=52	=52	=52	=52
4r	.	.	(<8.g/L	.	(8.ee-\L	.	4r	.	.	4r	.	.	4r	.	.	4r	.	.	4r	.	4r	.	4r	.	4r	.
.	.	.	16a-/Jk)	.	32dd\LL	.	.	.	.	.	.	.	.	.	.	.	.	.	.	.	.	.	.	.	.	.
.	.	.	.	.	32cc\JJJ)	.	.	.	.	.	.	.	.	.	.	.	.	.	.	.	.	.	.	.	.	.
!	!	!	!	!	!LO:SIC:s=8b-L|	!	!	!	!	!	!	!	!	!	!	!	!	!	!	!	!	!	!	!	!	!
8r	.	.	8g/L|	.	8b-/L	.	8r	.	.	8r	.	.	8r	.	.	8r	.	.	8r	.	8r	.	8r	.	8r	.
8E-\L	6 x	.	8e-/|	.	8g/|	.	8E-\	e-	.	8B-\	e-	.	8g\	e-	.	8ee-\	e-	.	8ee-\L	.	8gg\L	.	8ee-\L	.	8gg\L	.
8F\	.	.	8d/|	.	8a-/|	.	8F\L	-lei-	.	4B-\	-lei-	.	8a-\L	-lei-	.	8dd\L	-lei-	.	8b-\	.	8ff\	.	8dd\	.	8aa-\	.
8G\J	6 x	.	8e-/J|	.	8b-/J|	.	8G\J	.	.	.	.	.	8b-\J	.	.	8ee-\J	.	.	8ee-\J	.	8gg\J	.	8ee-\J	.	8bb-\J	.
!	!	!	!	!	!LO:LB:g=original	!	!	!	!	!	!	!	!	!	!	!	!	!	!LO:LB:g=original	!	!	!	!	!	!	!
=53	=53	=53	=53	=53	=53	=53	=53	=53	=53	=53	=53	=53	=53	=53	=53	=53	=53	=53	=53	=53	=53	=53	=53	=53	=53	=53
4A-\	6 x	.	16f/LL	.	8cc/L	.	8A-\	-son	.	8c\	-son	.	8cc\	son	.	8ff\	-son	.	4ff\	.	4aa-\	.	4ff\	.	4aa-\	.
.	.	.	16a-/	.	.	.	.	.	.	.	.	.	.	.	.	.	.	.	.	.	.	.	.	.	.	.
.	.	.	16g/	.	16b-/L	.	8A-\	e-	.	8c\	e-	.	8a-\	e-	.	8ff\	e-	.	.	.	.	.	.	.	.	.
.	.	.	16f/JJ	.	16a-/JJ	.	.	.	.	.	.	.	.	.	.	.	.	.	.	.	.	.	.	.	.	.
4B-\	x 4	.	4e-/	.	4g/	.	4B-\	-lei-	.	2B-\	-lei-	.	4g\	-lei-	.	4ee-\	-lei-	.	4ee-\	.	4gg\	.	4ee-\	.	4gg\	.
4BB-/	x 3	.	4d/	.	4f/	.	4BB-/	.	.	.	.	.	4f\	.	.	4dd\	.	.	4b-/	.	4ff\	.	4dd\	.	4ff\	.
=54	=54	=54	=54	=54	=54	=54	=54	=54	=54	=54	=54	=54	=54	=54	=54	=54	=54	=54	=54	=54	=54	=54	=54	=54	=54	=54
!	!	!	!	!LO:MO:null:mod=!LO&colon;DY&colon;ed=brack	!	!LO:MO:null:mod=!LO&colon;DY&colon;ed=brack	!	!	!	!	!	!	!	!	!	!	!	!	!	!	!	!	!	!LO:MO:null:mod=!LO&colon;DY&colon;ed=brack	!	!LO:MO:null:mod=!LO&colon;DY&colon;ed=brack
!	!	!	!	!	!	!	!	!	!	!	!	!	!	!	!	!	!	!	!	!	!	!	!	!	!	!
!	!	!LO:DY:a	!	!LO:MO:null:mod=p	!LO:SIC:s=(8gL	!LO:MO:null:mod=p	!	!	!	!	!	!	!	!	!	!	!	!	!	!LO:DY:a:rj:t=p.	!LO:TX:a:t=Solo:rj:mod=	!LO:DY:a:t=p.	!	!LO:MO:null:mod=p	!	!LO:MO:null:mod=p
4E-\	.	p	(<8e-/L	.	8g/L	.	4E-\	-son	.	4B-\	-son	.	4g\	-son	.	4ee-\	-son	.	2g/	p	2ee-\	p	4ee-\	.	4gg\	.
!	!	!	!	!	!LO:SIC:s=8b-J)	!	!	!	!	!	!	!	!	!	!	!	!	!	!	!	!	!	!	!	!	!
.	.	.	8g/J)	.	8b-/J	.	.	.	.	.	.	.	.	.	.	.	.	.	.	.	.	.	.	.	.	.
4G\	.	.	8r	.	8r	.	4r	.	.	4r	.	.	4r	.	.	4r	.	.	.	.	.	.	4gg\	.	4bb-\	.
!	!	!	!LO:MO:mod=!LO&colon;TX&colon;a&colon;i&colon;t=perdendosi	!	!LO:MO:mod=!LO&colon;TX&colon;a&colon;i&colon;t=perdendosi	!	!	!	!	!	!	!	!	!	!	!	!	!	!	!	!	!	!	!	!	!
!	!	!	!LO:TX:a:t=perdendo	!	!LO:TX:b:t=perendosi	!	!	!	!	!	!	!	!	!	!	!	!	!	!	!	!	!	!	!	!	!
.	.	.	8g/	.	8b-/	.	.	.	.	.	.	.	.	.	.	.	.	.	.	.	.	.	.	.	.	.
.	.	.	16qqg/	.	16qqb-/	.	.	.	.	.	.	.	.	.	.	.	.	.	.	.	.	.	.	.	.	.
4B-\	7 x	.	8f/L	.	8a-/L	.	4r	.	.	4r	.	.	4r	.	.	4r	.	.	4b-/	.	4ff\	.	4ff\	.	4aa-\	.
.	.	.	16e-/L	.	16g/L	.	.	.	.	.	.	.	.	.	.	.	.	.	.	.	.	.	.	.	.	.
.	.	.	16f/JJ	.	16a-/JJ	.	.	.	.	.	.	.	.	.	.	.	.	.	.	.	.	.	.	.	.	.
!	!	!	!	!	!	!	!	!	!	!	!	!	!	!	!	!	!	!	!	!	!LO:LB:g=original	!	!	!	!	!
=55	=55	=55	=55	=55	=55	=55	=55	=55	=55	=55	=55	=55	=55	=55	=55	=55	=55	=55	=55	=55	=55	=55	=55	=55	=55	=55
!	!	!	!LO:SIC:s=(8fL	!	!LO:SIC:s=(8a-L	!	!	!	!	!	!	!	!	!	!	!	!	!	!	!	!	!	!	!	!	!
4E-\	.	.	8f/L	.	(<8a-/L|	.	1.r	.	.	1.r	.	.	1.r	.	.	1.r	.	.	2g/	.	2ee-\	.	4ee-\	.	2gg\	.
!	!	!	!LO:SIC:s=8e-J)	!	!	!	!	!	!	!	!	!	!	!	!	!	!	!	!	!	!	!	!	!	!	!
.	.	.	8e-/J	.	8g/J)	.	.	.	.	.	.	.	.	.	.	.	.	.	.	.	.	.	.	.	.	.
4G\	.	.	8r	.	8r	.	.	.	.	.	.	.	.	.	.	.	.	.	.	.	.	.	4b-\	.	.	.
.	.	.	8B-/	.	8g/	.	.	.	.	.	.	.	.	.	.	.	.	.	.	.	.	.	.	.	.	.
.	.	.	16qqB-/	.	16qqg/	.	.	.	.	.	.	.	.	.	.	.	.	.	.	.	.	.	.	.	.	.
4B-\	7 x	.	8A-/L	.	8f/L	.	.	.	.	.	.	.	.	.	.	.	.	.	4b-/	.	4ff\	.	4a-\	.	4ff\	.
.	.	.	16G/L	.	16e-/L	.	.	.	.	.	.	.	.	.	.	.	.	.	.	.	.	.	.	.	.	.
.	.	.	16A-/JJ	.	16f/JJ	.	.	.	.	.	.	.	.	.	.	.	.	.	.	.	.	.	.	.	.	.
!	!	!	!	!	!	!	!	!	!	!	!	!	!	!	!	!	!	!	!	!	!	!	!	!	!LO:LB:g=original	!
=56	=56	=56	=56	=56	=56	=56	=56	=56	=56	=56	=56	=56	=56	=56	=56	=56	=56	=56	=56	=56	=56	=56	=56	=56	=56	=56
!	!	!LO:MO:null:mod=!LO&colon;DY&colon;ed=brack	!	!	!	!	!	!	!	!	!	!	!	!	!	!	!	!	!	!LO:MO:null:mod=!LO&colon;DY&colon;ed=brack	!	!LO:MO:null:mod=!LO&colon;DY&colon;ed=brack	!	!LO:MO:null:mod=!LO&colon;DY&colon;ed=brack	!	!LO:MO:null:mod=!LO&colon;DY&colon;ed=brack
!	!	!	!	!	!	!	!	!	!	!	!	!	!	!	!	!	!	!	!	!	!	!	!	!	!	!
!	!	!LO:MO:null:mod=pp	!	!LO:DY:a:t=pp.	!	!LO:DY:a:t=p&colon;	!	!	!	!	!	!	!	!	!	!	!	!	!	!LO:MO:null:mod=pp	!	!LO:MO:null:mod=pp	!	!LO:MO:null:mod=pp	!	!LO:MO:null:mod=pp
4E-\	.	.	4G/	pp	4e-/	pp	.	.	.	.	.	.	.	.	.	.	.	.	4g/	.	4ee-\	.	4g/	.	4ee-\	.
4E-\	.	.	4G/	.	4e-/	.	.	.	.	.	.	.	.	.	.	.	.	.	4g/	.	4ee-\	.	4g/	.	4ee-\	.
4E-\	.	.	4G/	.	4e-/	.	.	.	.	.	.	.	.	.	.	.	.	.	4g/	.	4ee-\	.	4g/	.	4ee-\	.
=57	=57	=57	=57	=57	=57	=57	=57	=57	=57	=57	=57	=57	=57	=57	=57	=57	=57	=57	=57	=57	=57	=57	=57	=57	=57	=57
*2\right	*	*	*	*	*	*	*	*	*	*	*	*	*	*	*	*	*	*	*	*	*	*	*	*	*	*
2E-\	.	.	2G/	.	2e-/	.	2.r	.	.	2.r	.	.	2.r	.	.	2.r	.	.	2g/	.	2ee-\	.	2g/	.	2ee-\	.
4r	.	.	4r	.	4r	.	.	.	.	.	.	.	.	.	.	.	.	.	4r	.	4r	.	4r	.	4r	.
==	==	==	==	==	==	==	==	==	==	==	==	==	==	==	==	==	==	==	==	==	==	==	==	==	==	==
*-	*-	*-	*-	*-	*-	*-	*-	*-	*-	*-	*-	*-	*-	*-	*-	*-	*-	*-	*-	*-	*-	*-	*-	*-	*-	*-
!!!system-decoration: [(g1)][(g2)][(g3)][(g4)]<s11>
!!!RDF**kern: > = above
!!!RDF**kern: < = below
!!!RDF**kern: | = vertical stroke
!!LO:MO:ori
!!!RDF**dynam: < = "cres.", fontstyle="italic"
!!LO:MO:end
!!!filter-modern: sic -sq | autostem -r | tie -s | shed -k -e "s/[<>]//g" | shed -e "s/yy//" | shed -e "s/TX(.*):t=P:/tx$1:t=P:/LG" | shed -e "s/LO:DY:(a|b|rj)/LO:dy:$1/L" | shed -e "s/^(\d+[\/\\]right)/$1yy/I; s/^(\d+[\/\\]left)/$1yy/I" | modori -m
!!!ENC: Berenika Jozajtis
!!!END: 2021-12-01
!!!EED: Jędrzej Mróz
!!!EEV: 2021-12-15
!!!ENC-modern: Marta Lawrence
!!!END-modern: 2022-07-26
